!!!!SEGMENT: pl-sa--304-a-vii-64--002_lechleitner-ferdinand-simon--desiderium-anima-eius.krn
!!!cenid: 17xx:402
!!!COM: Lechleitner, Ferdinand Simon
!!!COM-rismID: pe30001903
!!!CDT: ~1700-~1800
!!!CNT:
!!!OTL: Desiderium anima eius
!!!PDT:
!!!AGN: Sacred
!!!SMS-siglum: PL-SA
!!!SMS-shelfmark: 304/A VII 64
!!!SMS-shelfwork: 002 W
!!!NIFC-rismSourceID: 1001039881
!!!NIFC-rismChildID: 1001039881
!!!NIFC-islandoraID: none
!!!URL-pdf-islandora:
!!!URL-scan: https://bc.bdsandomierz.pl/dlibra/publication/1609/edition/1577/content @EN{Scan in the Sandomierz Diocese Digital Library} @PL{Skany w portalu Cyfrowa Biblioteka Diecezjalna w Sandomierzu}
!!!IIIF:
!!!ONB-nifc:
!!!AIN: 1 alto 3 empty 1 organ 1 tenor 2 violn 1 vox
!!!key:
**kern	**fba	**kern	**dynam	**kern	**dynam	**kern	**text	**kern	**text	**kern	**text	**kern	**text	**kern	**kern
*part9	*	*part8	*part8	*part7	*part7	*part6	*part6	*part5	*part5	*part4	*part4	*part3	*part3	*part2	*part1
*	*	*group3	*	*group3	*	*group2	*	*group2	*	*group2	*	*group2	*	*group1	*group1
*staff9	*	*staff8	*	*staff7	*	*staff6	*staff6	*staff5	*staff5	*staff4	*staff4	*staff3	*staff3	*staff2	*staff1
*Iorgan	*	*Ivioln	*	*Ivioln	*	*Iempty	*	*Itenor	*	*Ialto	*	*Ivox	*	*Iempty	*Iempty
*I"Organo.	*	*I"Violino 2.do	*	*I"Violino 1.mo	*	*I"Baſso.	*	*I"Tenore.	*	*I"Alto.	*	*I"Canto.	*	*I"Clarino 2.do Ex. D.	*I"Clarino Solo.
*I'org	*	*I'vl 2	*	*I'vl 1	*	*I'B	*	*I'T	*	*I'A	*	*I'C	*	*I'clno 2	*I'clno 1
*clefF4	*	*clefG2	*	*clefG2	*	*clefF4	*	*clefC4	*	*clefC3	*	*clefC1	*	*clefG2	*clefG2
*ITrd0c0	*	*	*	*	*	*	*	*	*	*	*	*	*	*ITrd-1c-2	*ITrd-1c-2
*k[f#c#]	*	*k[f#c#]	*	*k[f#c#]	*	*k[f#c#]	*	*k[f#c#]	*	*k[f#c#]	*	*k[f#c#]	*	*k[f#c#]	*k[f#c#]
*D:	*	*D:	*	*D:	*	*D:	*	*D:	*	*D:	*	*D:	*	*D:	*D:
*M4/4	*	*M4/4	*	*M4/4	*	*M4/4	*	*M4/4	*	*M4/4	*	*M4/4	*	*M4/4	*M4/4
*met(C.)	*	*met(C.)	*	*met(C.)	*	*met(C.)	*	*met(C.)	*	*met(C.)	*	*met(c)	*	*met(C.)	*met(C.)
*>[A,B,B,C]	*	*>[A,B,B,C]	*	*>[A,B,B,C]	*	*>[A,B,B,C]	*	*>[A,B,B,C]	*	*>[A,B,B,C]	*	*>[A,B,B,C]	*	*>[A,B,B,C]	*>[A,B,B,C]
*>A	*	*>A	*	*>A	*	*>A	*	*>A	*	*>A	*	*>A	*	*>A	*>A
!LO:TX:a:t=P:problem=krzyżyki jeden nad drugim	!	!LO:TX:a:t=P:problem=krzyżyki f# cc# ff# jeden nad drugim	!	!LO:TX:a:t=P:problem=krzyżyki f# cc# ff# jeden nad drugim	!	!LO:TX:a:t=P:problem=krzyżyki jeden nad drugim	!	!LO:TX:a:t=P:problem=krzyżyki jeden nad drugim	!	!LO:TX:a:t=P:problem=krzyżyki jeden nad drugim	!	!LO:TX:a:t=P:problem=krzyżyki f# cc# jeden nad drugim	!	!	!
!LO:TX:b:B:t=II.um Desiderium.	!	!LO:TX:b:B:t=II. Desiderium.	!	!LO:TX:b:B:t=II. Desiderium.	!	!LO:TX:a:B:t=Canto Solo\nTacet.	!	!LO:TX:b:B:t=II. Desiderium.	!	!LO:TX:a:B:t=Canto Solo\n Tacet.	!	!	!	!LO:TX:b:B:t=II. Desiderium.	!LO:TX:b:B:t=II. Desiderium.
!LO:TX:a:B:t=Presto. Solo	!	!LO:TX:a:B:t=Presto Solo.	!	!LO:TX:a:B:t=Presto Solo.	!	!LO:TX:b:B:t=II. Desiderium.	!	!LO:TX:a:B:t=Canto Solo\n Tacet	!	!LO:TX:b:B:t=II. Desiderium.	!	!LO:TX:a:B:t=Presto.	!	!LO:TX:a:B:t=Canto Solo\n Tacet.	!LO:TX:a:B:t=Canto Solo\nTacet.
!LO:TX:a:B:t=De Abbatibus.	!	!	!	!	!	!	!	!	!	!	!	!	!	!	!
8r	.	8r	.	16a/LL	.	8ryy	.	8ryy	.	8ryy	.	8r	.	8ryy	8ryy
.	.	.	.	16b/	.	.	.	.	.	.	.	.	.	.	.
16r	.	16r	.	16cc#/JJ	.	16ryy	.	16ryy	.	16ryy	.	16r	.	16ryy	16ryy
=1!|:	=1!|:	=1!|:	=1!|:	=1!|:	=1!|:	=1!|:	=1!|:	=1!|:	=1!|:	=1!|:	=1!|:	=1!|:	=1!|:	=1!|:	=1!|:
*>B	*	*>B	*	*>B	*	*>B	*	*>B	*	*>B	*	*>B	*	*>B	*>B
!LO:TX:a:t=P:problem=mixed beam	!	!	!	!	!	!	!	!	!	!	!	!	!	!	!
!LO:TX:a:t=R.	!	!LO:TX:a:B:t=R.	!	!LO:TX:a:B:t=R.	!	!	!	!	!	!	!	!LO:TX:a:B:t=R.	!	!	!
8D\L	.	4a/	.	4dd\	.	1ryy	.	1ryy	.	1ryy	.	00r	.	1ryy	1ryy
8F#\	.	.	.	.	.	.	.	.	.	.	.	.	.	.	.
8A\	.	4cc#\	.	4ee\	.	.	.	.	.	.	.	.	.	.	.
8AA/J	.	.	.	.	.	.	.	.	.	.	.	.	.	.	.
4D/	.	8a/L	.	8ff#\L	.	.	.	.	.	.	.	.	.	.	.
.	.	16g/L	.	16ee\L	.	.	.	.	.	.	.	.	.	.	.
.	.	16a/JJ	.	16ff#\JJ	.	.	.	.	.	.	.	.	.	.	.
8r	.	8f#/L	.	8dd\L	.	.	.	.	.	.	.	.	.	.	.
8A\	.	8e/J	.	8cc#\J	.	.	.	.	.	.	.	.	.	.	.
=2	=2	=2	=2	=2	=2	=2	=2	=2	=2	=2	=2	=2	=2	=2	=2
4B\	.	8b\L	.	8dd\L	.	1ryy	.	1ryy	.	1ryy	.	.	.	1ryy	1ryy
.	.	16cc#\L	.	16ee\L	.	.	.	.	.	.	.	.	.	.	.
.	.	16dd\JJ	.	16ff#\JJ	.	.	.	.	.	.	.	.	.	.	.
8G\L	6	8e/L	.	8b\L	.	.	.	.	.	.	.	.	.	.	.
8E\J	.	8g/J	.	8ee\J	.	.	.	.	.	.	.	.	.	.	.
!LO:TX:a:t=P:problem=mixed beam	!	!	!	!	!	!	!	!	!	!	!	!	!	!	!
8AA/L	.	4e/	.	8cc#\L	.	.	.	.	.	.	.	.	.	.	.
16A\L	.	.	.	8a\J	.	.	.	.	.	.	.	.	.	.	.
16G\JJ	.	.	.	.	.	.	.	.	.	.	.	.	.	.	.
8F#\L	6	8r	.	8r	.	.	.	.	.	.	.	.	.	.	.
8D\J	.	8f#/	.	8a/	.	.	.	.	.	.	.	.	.	.	.
=3	=3	=3	=3	=3	=3	=3	=3	=3	=3	=3	=3	=3	=3	=3	=3
8G\L	.	16g/LL|	.	16b/LL|	.	1ryy	.	1ryy	.	1ryy	.	.	.	1ryy	1ryy
.	.	16f#/|	.	16a/|	.	.	.	.	.	.	.	.	.	.	.
8D\J	.	16e/|	.	16g/|	.	.	.	.	.	.	.	.	.	.	.
.	.	16f#/JJ|	.	16a/JJ|	.	.	.	.	.	.	.	.	.	.	.
8r	.	(16g/LL	.	(16b/LL	.	.	.	.	.	.	.	.	.	.	.
.	.	16f#/)	.	16a/)	.	.	.	.	.	.	.	.	.	.	.
8D\	.	(16g/	.	(16b/	.	.	.	.	.	.	.	.	.	.	.
.	.	16f#/JJ)	.	16a/JJ)	.	.	.	.	.	.	.	.	.	.	.
8G\L	.	16g/LL|	.	16b/LL|	.	.	.	.	.	.	.	.	.	.	.
.	.	16f#/	.	16a/	.	.	.	.	.	.	.	.	.	.	.
8D\	.	16e/	.	16g/	.	.	.	.	.	.	.	.	.	.	.
.	.	16f#/JJ	.	16a/JJ	.	.	.	.	.	.	.	.	.	.	.
*	*	*	*	*custos:b	*	*	*	*	*	*	*	*	*	*	*
!	!	!	!	!LO:LB:g=original	!	!	!	!	!	!	!	!	!	!	!
8G\	.	16g/LL	.	16b\LL	.	.	.	.	.	.	.	.	.	.	.
.	.	16a/	.	16cc#\	.	.	.	.	.	.	.	.	.	.	.
8E\J	.	16b/	.	16dd\	.	.	.	.	.	.	.	.	.	.	.
.	.	16g/JJ	.	16ee\JJ	.	.	.	.	.	.	.	.	.	.	.
=4	=4	=4	=4	=4	=4	=4	=4	=4	=4	=4	=4	=4	=4	=4	=4
8D/L	.	16f#/LL	.	16a/LL|	.	1ryy	.	1ryy	.	1ryy	.	.	.	1ryy	1ryy
.	.	16e/	.	16g/|	.	.	.	.	.	.	.	.	.	.	.
8AA/J	7	16d/	.	16f#/|	.	.	.	.	.	.	.	.	.	.	.
.	.	16e/JJ	.	16g/JJ|	.	.	.	.	.	.	.	.	.	.	.
8r	.	(16f#/LL	.	(16a/LL	.	.	.	.	.	.	.	.	.	.	.
.	.	16e/)	.	16g/)	.	.	.	.	.	.	.	.	.	.	.
8AA/	7	(16f#/	.	(16a/	.	.	.	.	.	.	.	.	.	.	.
.	.	16e/JJ)	.	16g/JJ)	.	.	.	.	.	.	.	.	.	.	.
!	!	!LO:LB:g=original	!	!	!	!	!	!	!	!	!	!	!	!	!
8D/L	.	16f#/LL|	.	16a/LL|	.	.	.	.	.	.	.	.	.	.	.
.	.	16e/	.	16g/|	.	.	.	.	.	.	.	.	.	.	.
8AA/	.	16d/	.	16f#/	.	.	.	.	.	.	.	.	.	.	.
.	.	16e/JJ	.	16g/JJ	.	.	.	.	.	.	.	.	.	.	.
8D/	.	16f#/LL	.	16a\LL	.	.	.	.	.	.	.	.	.	.	.
.	.	16g/	.	16b\	.	.	.	.	.	.	.	.	.	.	.
8BB/J	.	16a/	.	16cc#\	.	.	.	.	.	.	.	.	.	.	.
.	.	16f#/JJ	.	16dd\JJ	.	.	.	.	.	.	.	.	.	.	.
!LO:LB:g=original	!	!	!	!	!	!	!	!	!	!	!	!	!	!	!
=5	=5	=5	=5	=5	=5	=5	=5	=5	=5	=5	=5	=5	=5	=5	=5
8AA/L	7_	16g/LL	.	16ee\LL|	.	1ryy	.	1ryy	.	1ryy	.	00r	.	1ryy	1ryy
.	.	16f#/	.	16dd\|	.	.	.	.	.	.	.	.	.	.	.
8AA/	.	16e/	.	16cc#\|	.	.	.	.	.	.	.	.	.	.	.
.	.	16f#/JJ	.	16dd\JJ|	.	.	.	.	.	.	.	.	.	.	.
8AA/	.	(16g/LL	.	(16ee\LL	.	.	.	.	.	.	.	.	.	.	.
.	.	16f#/)	.	16dd\)	.	.	.	.	.	.	.	.	.	.	.
8AA/J	.	(16g/	.	(16ee\	.	.	.	.	.	.	.	.	.	.	.
.	.	16f#/JJ)	.	16dd\JJ)	.	.	.	.	.	.	.	.	.	.	.
4AA/	.	16g/LL	.	16ee\LL|	.	.	.	.	.	.	.	.	.	.	.
.	X	16f#/	.	16dd\	.	.	.	.	.	.	.	.	.	.	.
.	.	16e/	.	16cc#\	.	.	.	.	.	.	.	.	.	.	.
.	.	16f#/JJ	.	16dd\JJ	.	.	.	.	.	.	.	.	.	.	.
!	!	!LO:TX:a:t=P:problem=mixed beam	!	!	!	!	!	!	!	!	!	!	!	!	!
4r	.	8g/L	.	8ee\L	.	.	.	.	.	.	.	.	.	.	.
.	.	8cc#\J	.	8aa\J	.	.	.	.	.	.	.	.	.	.	.
=6	=6	=6	=6	=6	=6	=6	=6	=6	=6	=6	=6	=6	=6	=6	=6
!LO:TX:a:t=P:problem=mixed beam	!	!	!	!	!	!	!	!	!	!	!	!	!	!	!
8D\L	.	4a/	.	4dd\|	.	1ryy	.	1ryy	.	1ryy	.	.	.	1ryy	1ryy
8F#\	.	.	.	.	.	.	.	.	.	.	.	.	.	.	.
8A\	.	4cc#\	.	4ee\|	.	.	.	.	.	.	.	.	.	.	.
8AA/J	.	.	.	.	.	.	.	.	.	.	.	.	.	.	.
4D/	.	8a/L	.	8ff#\L	.	.	.	.	.	.	.	.	.	.	.
.	.	16g/L	.	16ee\L	.	.	.	.	.	.	.	.	.	.	.
.	.	16a/JJ	.	16ff#\JJ	.	.	.	.	.	.	.	.	.	.	.
8r	.	8f#/L	.	8dd\L	.	.	.	.	.	.	.	.	.	.	.
8A\	.	8e/J	.	8cc#\J	.	.	.	.	.	.	.	.	.	.	.
=7	=7	=7	=7	=7	=7	=7	=7	=7	=7	=7	=7	=7	=7	=7	=7
4B\	.	8b\L	.	8dd\L	.	1ryy	.	1ryy	.	1ryy	.	.	.	1ryy	1ryy
.	.	16cc#\L	.	16ee\L	.	.	.	.	.	.	.	.	.	.	.
.	.	16dd\JJ	.	16ff#\JJ	.	.	.	.	.	.	.	.	.	.	.
8G\L	.	8e/L	.	8b\L	.	.	.	.	.	.	.	.	.	.	.
8E\J	.	8g/J	.	8ee\J	.	.	.	.	.	.	.	.	.	.	.
4AA/	.	4e/	.	8cc#\L	.	.	.	.	.	.	.	.	.	.	.
.	.	.	.	8a\J	.	.	.	.	.	.	.	.	.	.	.
*	*	*	*	*custos:dd	*	*	*	*	*	*	*	*	*	*	*
!	!	!	!	!LO:LB:g=original	!	!	!	!	!	!	!	!	!	!	!
8r	.	8r	.	4dd\	.	.	.	.	.	.	.	.	.	.	.
8D/	.	8f#/	.	.	.	.	.	.	.	.	.	.	.	.	.
=8	=8	=8	=8	=8	=8	=8	=8	=8	=8	=8	=8	=8	=8	=8	=8
!	!	!	!	!LO:N:xstem:cue	!	!	!	!	!	!	!	!	!	!	!
4F#\	6	4a/	.	8dd\	.	1ryy	.	1ryy	.	1ryy	.	.	.	1ryy	1ryy
.	.	.	.	8a/	.	.	.	.	.	.	.	.	.	.	.
8r	.	8r	.	4.ee\	.	.	.	.	.	.	.	.	.	.	.
8G\	6	8b/	.	.	.	.	.	.	.	.	.	.	.	.	.
4A\	.	4cc#\	.	.	.	.	.	.	.	.	.	.	.	.	.
.	.	.	.	8a/	.	.	.	.	.	.	.	.	.	.	.
!	!	!	!	!LO:TX:a:t=P:problem=mixed beam	!	!	!	!	!	!	!	!	!	!	!
4D/	.	4a/	.	8ff#\L	.	.	.	.	.	.	.	.	.	.	.
.	.	.	.	8a/J	.	.	.	.	.	.	.	.	.	.	.
=9	=9	=9	=9	=9	=9	=9	=9	=9	=9	=9	=9	=9	=9	=9	=9
!	!	!	!	!LO:TX:a:t=P:problem=mixed beam	!	!	!	!	!	!	!	!	!	!	!
4E\	.	8ee\L	.	8gg\L	.	1ryy	.	1ryy	.	1ryy	.	1r	.	1ryy	1ryy
.	.	8a\J	.	8a/J	.	.	.	.	.	.	.	.	.	.	.
8r	.	8cc#\L	.	8aa\L	.	.	.	.	.	.	.	.	.	.	.
8A\	.	16ff#\L	.	16dd\L	.	.	.	.	.	.	.	.	.	.	.
.	.	16ee\JJ	.	16cc#\JJ	.	.	.	.	.	.	.	.	.	.	.
8F#\L	6	8ff#\L	.	8dd\L	.	.	.	.	.	.	.	.	.	.	.
8G\J	6	8b\J	.	8ee\J	.	.	.	.	.	.	.	.	.	.	.
!LO:TX:a:t=P:problem=mixed beam	!	!	!	!	!	!	!	!	!	!	!	!	!	!	!
8A\L	5 4	8e/L	.	8a\L	.	.	.	.	.	.	.	.	.	.	.
8AA/J	x 3	8a/J	.	8cc#\J	.	.	.	.	.	.	.	.	.	.	.
!	!	!LO:LB:g=original	!	!	!	!	!	!	!	!	!	!	!	!	!
=10	=10	=10	=10	=10	=10	=10	=10	=10	=10	=10	=10	=10	=10	=10	=10
!	!	!	!	!	!	!	!	!	!	!	!	!LO:TX:a:t=Solo	!	!	!
!	!	!	!	!	!	!	!	!	!	!	!	!LO:TX:b:t=P:problem="D" przed kluczem	!	!	!
4D/	.	4f#/	.	4dd\	.	1ryy	.	1ryy	.	1ryy	.	4dd\	(D)e-	1ryy	1ryy
8r	.	4r	.	4r	.	.	.	.	.	.	.	4ee\	-si-	.	.
8A\	.	.	.	.	.	.	.	.	.	.	.	.	.	.	.
8d\L	.	2r	.	2r	.	.	.	.	.	.	.	8ff#\L	-de-	.	.
8c#\	.	.	.	.	.	.	.	.	.	.	.	(16ee\L	.	.	.
.	.	.	.	.	.	.	.	.	.	.	.	16ff#\JJ)	.	.	.
8B\	.	.	.	.	.	.	.	.	.	.	.	8dd\	-ri-	.	.
8A\J	.	.	.	.	.	.	.	.	.	.	.	8cc#\	-um	.	.
!LO:LB:g=original	!	!	!	!	!	!	!	!	!	!	!	!	!	!	!
=11	=11	=11	=11	=11	=11	=11	=11	=11	=11	=11	=11	=11	=11	=11	=11
8B\L	.	2r	.	2r	.	1ryy	.	1ryy	.	1ryy	.	(8dd\L	a-	1ryy	1ryy
8A\	.	.	.	.	.	.	.	.	.	.	.	16ee\L	.	.	.
.	.	.	.	.	.	.	.	.	.	.	.	16ff#\JJ)	.	.	.
8G\	.	.	.	.	.	.	.	.	.	.	.	8b\	-ni-	.	.
8E\J	.	.	.	.	.	.	.	.	.	.	.	8ee\	-ma	.	.
!LO:TX:a:t=P:problem=mixed beam	!	!	!	!	!	!	!	!	!	!	!	!	!	!	!
8AA/L	.	4r	.	4r	.	.	.	.	.	.	.	8cc#\	e-	.	.
8A\	.	.	.	.	.	.	.	.	.	.	.	8a\	-jus	.	.
8F#\	6	8r	.	8r	.	.	.	.	.	.	.	4r	.	.	.
8D\J	.	8f#/	.	8a/	.	.	.	.	.	.	.	.	.	.	.
=12	=12	=12	=12	=12	=12	=12	=12	=12	=12	=12	=12	=12	=12	=12	=12
8G\L	.	16g/LL	.	16b/LL|	.	1ryy	.	1ryy	.	1ryy	.	0r	.	1ryy	1ryy
.	.	16f#/	.	16a/|	.	.	.	.	.	.	.	.	.	.	.
8D\J	.	16e/	.	16g/|	.	.	.	.	.	.	.	.	.	.	.
.	.	16f#/JJ	.	16a/JJ|	.	.	.	.	.	.	.	.	.	.	.
8r	.	(16g/LL	.	(16b/LL	.	.	.	.	.	.	.	.	.	.	.
.	.	16f#/)	.	16a/)	.	.	.	.	.	.	.	.	.	.	.
8D\	.	(16g/	.	(16b/	.	.	.	.	.	.	.	.	.	.	.
.	.	16f#/JJ)	.	16a/JJ)	.	.	.	.	.	.	.	.	.	.	.
8G\L	.	16g/LL|	.	16b/LL|	.	.	.	.	.	.	.	.	.	.	.
.	.	16f#/	.	16a/	.	.	.	.	.	.	.	.	.	.	.
8D\	.	16e/	.	16g/	.	.	.	.	.	.	.	.	.	.	.
.	.	16f#/JJ	.	16a/JJ	.	.	.	.	.	.	.	.	.	.	.
8G\	.	16g/LL	.	16b\LL	.	.	.	.	.	.	.	.	.	.	.
.	.	16a/	.	16cc#\	.	.	.	.	.	.	.	.	.	.	.
8E\J	.	16b/	.	16dd\	.	.	.	.	.	.	.	.	.	.	.
.	.	16g/JJ	.	16ee\JJ	.	.	.	.	.	.	.	.	.	.	.
=13	=13	=13	=13	=13	=13	=13	=13	=13	=13	=13	=13	=13	=13	=13	=13
8D/L	.	16f#/LL	.	16a/LL|	.	1ryy	.	1ryy	.	1ryy	.	.	.	1ryy	1ryy
.	.	16e/	.	16g/|	.	.	.	.	.	.	.	.	.	.	.
8AA/J	7	16d/	.	16f#/|	.	.	.	.	.	.	.	.	.	.	.
.	.	16e/JJ	.	16g/JJ|	.	.	.	.	.	.	.	.	.	.	.
*	*	*	*	*custos:a	*	*	*	*	*	*	*	*	*	*	*
!	!	!	!	!LO:LB:g=original	!	!	!	!	!	!	!	!	!	!	!
8r	.	(16f#/LL	.	(16a/LL	.	.	.	.	.	.	.	.	.	.	.
.	.	16e/)	.	16g/)	.	.	.	.	.	.	.	.	.	.	.
8AA/	7	(16f#/	.	(16a/	.	.	.	.	.	.	.	.	.	.	.
.	.	16e/JJ)	.	16g/JJ)	.	.	.	.	.	.	.	.	.	.	.
8D/L	.	16f#/LL|	.	16a/LL|	.	.	.	.	.	.	.	.	.	.	.
.	.	16e/	.	16g/	.	.	.	.	.	.	.	.	.	.	.
8AA/	.	16d/	.	16f#/	.	.	.	.	.	.	.	.	.	.	.
.	.	16e/JJ	.	16g/JJ	.	.	.	.	.	.	.	.	.	.	.
8D/	.	16f#/LL	.	16a\LL	.	.	.	.	.	.	.	.	.	.	.
.	.	16g/	.	16b\	.	.	.	.	.	.	.	.	.	.	.
8BB/J	.	16a/	.	16cc#\	.	.	.	.	.	.	.	.	.	.	.
.	.	16f#/JJ	.	16dd\JJ	.	.	.	.	.	.	.	.	.	.	.
=14	=14	=14	=14	=14	=14	=14	=14	=14	=14	=14	=14	=14	=14	=14	=14
8AA/L	7_	16g/LL	.	16ee\LL	.	1ryy	.	1ryy	.	1ryy	.	1r	.	1ryy	1ryy
.	.	16f#/	.	16dd\	.	.	.	.	.	.	.	.	.	.	.
8AA/	.	16e/	.	16cc#\	.	.	.	.	.	.	.	.	.	.	.
.	.	16f#/JJ	.	16dd\JJ	.	.	.	.	.	.	.	.	.	.	.
8AA/	.	(16g/LL	.	(16ee\LL	.	.	.	.	.	.	.	.	.	.	.
.	.	16f#/)	.	16dd\)	.	.	.	.	.	.	.	.	.	.	.
8AA/J	.	(16g/	.	(16ee\	.	.	.	.	.	.	.	.	.	.	.
.	.	16f#/JJ)	.	16dd\JJ)	.	.	.	.	.	.	.	.	.	.	.
4AA/	.	16g/LL	.	16ee\LL|	.	.	.	.	.	.	.	.	.	.	.
.	X	16f#/	.	16dd\	.	.	.	.	.	.	.	.	.	.	.
.	.	16e/	.	16cc#\	.	.	.	.	.	.	.	.	.	.	.
.	.	16f#/JJ	.	16dd\JJ	.	.	.	.	.	.	.	.	.	.	.
!	!	!LO:TX:a:t=P:problem=mixed beam	!	!	!	!	!	!	!	!	!	!	!	!	!
8r	.	8g/L	.	8ee\L	.	.	.	.	.	.	.	.	.	.	.
8AA/	.	8cc#\J	.	8aa\J	.	.	.	.	.	.	.	.	.	.	.
=15	=15	=15	=15	=15	=15	=15	=15	=15	=15	=15	=15	=15	=15	=15	=15
!LO:TX:a:t=P:problem=mixed beam	!	!	!	!	!	!	!	!	!	!	!	!	!	!	!
8D\L	.	8a/L	.	8ff#\L	.	1ryy	.	1ryy	.	1ryy	.	2r	.	1ryy	1ryy
8G\	6	8b/J	.	16ee\L	.	.	.	.	.	.	.	.	.	.	.
.	5	.	.	16dd\JJ	.	.	.	.	.	.	.	.	.	.	.
8A\	5 4	4e/	.	8a\L	.	.	.	.	.	.	.	.	.	.	.
8AA/J	x 3	.	.	8cc#\J	.	.	.	.	.	.	.	.	.	.	.
!	!	!	!	!LO:TX:a:t=P:problem=mixed beam	!	!	!	!	!	!	!	!	!	!	!
4D/	.	4f#/	.	8dd\L	.	.	.	.	.	.	.	4dd\	De-	.	.
.	.	.	.	8d/J	.	.	.	.	.	.	.	.	.	.	.
8r	.	4r	.	4r	.	.	.	.	.	.	.	4ee\	-si-	.	.
8A\	.	.	.	.	.	.	.	.	.	.	.	.	.	.	.
!	!	!LO:LB:g=original	!	!	!	!	!	!	!	!	!	!LO:LB:g=original	!	!	!
=16	=16	=16	=16	=16	=16	=16	=16	=16	=16	=16	=16	=16	=16	=16	=16
8d\L	.	1r	.	1r	.	1ryy	.	1ryy	.	1ryy	.	(8ff#\L	-de-	1ryy	1ryy
8c#\	.	.	.	.	.	.	.	.	.	.	.	16ee\L	.	.	.
.	.	.	.	.	.	.	.	.	.	.	.	16ff#\JJ)	.	.	.
8B\	.	.	.	.	.	.	.	.	.	.	.	8dd\	-ri-	.	.
8A\J	.	.	.	.	.	.	.	.	.	.	.	8cc#\	-um	.	.
*custos:B	*	*	*	*	*	*	*	*	*	*	*	*	*	*	*
!LO:LB:g=original	!	!	!	!	!	!	!	!	!	!	!	!	!	!	!
8B\L	.	.	.	.	.	.	.	.	.	.	.	(8dd\L	a-	.	.
8A\	.	.	.	.	.	.	.	.	.	.	.	16ee\L	.	.	.
.	.	.	.	.	.	.	.	.	.	.	.	16ff#\JJ)	.	.	.
8G\	.	.	.	.	.	.	.	.	.	.	.	8b\	-ni-	.	.
8E\J	.	.	.	.	.	.	.	.	.	.	.	8ee\	-ma	.	.
=17	=17	=17	=17	=17	=17	=17	=17	=17	=17	=17	=17	=17	=17	=17	=17
!LO:TX:a:t=P:problem=mixed beam	!	!	!	!	!	!	!	!	!	!	!	!	!	!	!
8AA/L	.	4r	.	4r	.	1ryy	.	1ryy	.	1ryy	.	8cc#\	e-	1ryy	1ryy
8A\	.	.	.	.	.	.	.	.	.	.	.	8a\	-jus	.	.
8F#\	6	8r	.	8r	.	.	.	.	.	.	.	4r	.	.	.
!	!	!	!LO:DY:a:t=piano	!	!LO:DY:b:t=piano	!	!	!	!	!	!	!	!	!	!
8D\J	.	8d/	p	8a/	p	.	.	.	.	.	.	.	.	.	.
8G\L	.	8d/L	.	16b/LL	.	.	.	.	.	.	.	(16b\LL	tri-	.	.
.	.	.	.	16a/	.	.	.	.	.	.	.	16a\JJ)	.	.	.
8F#\	6	8d/	.	16g/	.	.	.	.	.	.	.	(16g\LL	-bu-	.	.
.	.	.	.	16a/JJ	.	.	.	.	.	.	.	16a\JJ)	.	.	.
8G\	.	8d/	.	(16b/LL	.	.	.	.	.	.	.	(16b\LL	-i-	.	.
.	.	.	.	16a/)	.	.	.	.	.	.	.	16a\JJ)	.	.	.
8F#\J	6	8d/J	.	(16b/	.	.	.	.	.	.	.	(16b\LL	-ſti	.	.
.	.	.	.	16a/JJ)	.	.	.	.	.	.	.	16a\JJ)	.	.	.
!	!	!	!	!LO:LB:g=original	!	!	!	!	!	!	!	!	!	!	!
=18	=18	=18	=18	=18	=18	=18	=18	=18	=18	=18	=18	=18	=18	=18	=18
!LO:TX:a:t=P:problem=mixed beam	!	!	!	!	!	!	!	!	!	!	!	!	!	!	!
8G\L	.	8d/L	.	16b/LL	.	1ryy	.	1ryy	.	1ryy	.	16b\LL	e-	1ryy	1ryy
.	.	.	.	16a/	.	.	.	.	.	.	.	16a\	.	.	.
8GG/J	.	8d/	.	16g/	.	.	.	.	.	.	.	16g\	.	.	.
.	.	.	.	16a/JJ	.	.	.	.	.	.	.	16a\JJ	.	.	.
4r	.	8d/J	.	8b/	.	.	.	.	.	.	.	16b\LL	.	.	.
.	.	.	.	.	.	.	.	.	.	.	.	16cc#\JJ	.	.	.
.	.	8r	.	8r	.	.	.	.	.	.	.	(16dd\LL	-i,	.	.
.	.	.	.	.	.	.	.	.	.	.	.	16ee,<\JJ)	.	.	.
8D/L	.	8d/L	.	16a/LL	.	.	.	.	.	.	.	(16a\LL	tri-	.	.
.	.	.	.	16g/	.	.	.	.	.	.	.	16g\JJ)	.	.	.
8AA/J	7	8e/	.	16f#/	.	.	.	.	.	.	.	(16f#/LL	-bu-	.	.
.	.	.	.	16g/JJ	.	.	.	.	.	.	.	16g/JJ)	.	.	.
8r	.	8d/	.	(16a/LL	.	.	.	.	.	.	.	(16a\LL	-i-	.	.
.	.	.	.	16g/)	.	.	.	.	.	.	.	16g\JJ)	.	.	.
8AA/	7	8c#/J	.	(16a/	.	.	.	.	.	.	.	(16a\LL	-ſti	.	.
.	.	.	.	16g/JJ)	.	.	.	.	.	.	.	16g\JJ)	.	.	.
=19	=19	=19	=19	=19	=19	=19	=19	=19	=19	=19	=19	=19	=19	=19	=19
!LO:TX:a:t=P:problem=mixed beam	!	!	!	!	!	!	!	!	!	!	!	!	!	!	!
8D/L	.	8d/L	.	16a/LL	.	1ryy	.	1ryy	.	1ryy	.	16a\LL	e-	1ryy	1ryy
.	.	.	.	16g/	.	.	.	.	.	.	.	16g\	.	.	.
8A\J	7	8e/J	.	16f#/	.	.	.	.	.	.	.	16f#\	.	.	.
.	.	.	.	16g/JJ	.	.	.	.	.	.	.	16g\JJ	.	.	.
*	*	*	*	*	*	*	*	*	*	*	*	*custos:a	*	*	*
!	!	!	!	!	!	!	!	!	!	!	!	!LO:LB:g=original	!	!	!
8D/L	.	8d/	.	8a/	.	.	.	.	.	.	.	16a\LL	.	.	.
.	.	.	.	.	.	.	.	.	.	.	.	16b\JJ	.	.	.
8BB/J	.	8r	.	8r	.	.	.	.	.	.	.	(16cc#\LL	-i,	.	.
.	.	.	.	.	.	.	.	.	.	.	.	16dd\JJ,<)	.	.	.
4AA/	7	8A/L	.	16g/LL	.	.	.	.	.	.	.	(16ee\LL	tri-	.	.
.	.	.	.	16f#/	.	.	.	.	.	.	.	16dd\JJ)	.	.	.
.	.	8A/	.	16e/	.	.	.	.	.	.	.	(16cc#\LL	-bu-	.	.
.	.	.	.	16f#/JJ	.	.	.	.	.	.	.	16dd\JJ)	.	.	.
4r	.	8A/	.	(16g/LL	.	.	.	.	.	.	.	(16ee\LL	-i-	.	.
.	.	.	.	16f#/)	.	.	.	.	.	.	.	16dd\JJ)	.	.	.
.	.	8A/J	.	(16g/	.	.	.	.	.	.	.	(16ee\LL	-ſti	.	.
.	.	.	.	16f#/JJ)	.	.	.	.	.	.	.	16dd\JJ)	.	.	.
=20	=20	=20	=20	=20	=20	=20	=20	=20	=20	=20	=20	=20	=20	=20	=20
4AA/	7	8A/L	.	16g/LL	.	1ryy	.	1ryy	.	1ryy	.	(16ee\LL	Do-	1ryy	1ryy
.	.	.	.	16f#/	.	.	.	.	.	.	.	16dd\JJ)	.	.	.
.	.	8A/	.	16e/	.	.	.	.	.	.	.	(16cc#\LL	-mi-	.	.
.	.	.	.	16f#/JJ	.	.	.	.	.	.	.	16dd\JJ)	.	.	.
4r	.	8A/	.	8g/L	.	.	.	.	.	.	.	8ee,<\	-ne,	.	.
.	.	8c#/J	.	8a/J	.	.	.	.	.	.	.	8a\	et	.	.
2rBB	.	8d/L	.	4dd\	.	.	.	.	.	.	.	4dd\	vo-	.	.
.	.	8f#/J	.	.	.	.	.	.	.	.	.	.	.	.	.
.	.	8a/L	.	4ee\	.	.	.	.	.	.	.	4ee\	-lun-	.	.
.	.	8A/J	.	.	.	.	.	.	.	.	.	.	.	.	.
=21	=21	=21	=21	=21	=21	=21	=21	=21	=21	=21	=21	=21	=21	=21	=21
0r	.	4d/	.	8ff#\L	.	1ryy	.	1ryy	.	1ryy	.	8ff#\	-ta-	1ryy	1ryy
.	.	.	.	16ee\L	.	.	.	.	.	.	.	(16ee\LL	-te	.	.
.	.	.	.	16ff#\JJ	.	.	.	.	.	.	.	16ff#\JJ)	.	.	.
.	.	8r	.	8dd\L	.	.	.	.	.	.	.	8dd\	la-	.	.
.	.	8A/	.	8cc#\J	.	.	.	.	.	.	.	8cc#\	-bio-	.	.
.	.	8B/L	.	8dd\L	.	.	.	.	.	.	.	(8dd\L	.	.	.
.	.	8b/	.	16ee\L	.	.	.	.	.	.	.	16ee\L	.	.	.
.	.	.	.	16ff#\JJ	.	.	.	.	.	.	.	16ff#\JJ)	.	.	.
.	.	8g/	.	8b\L	.	.	.	.	.	.	.	(8b\L	-rum	.	.
.	.	8e/J	.	8ee\J	.	.	.	.	.	.	.	8ee\J)	.	.	.
=22	=22	=22	=22	=22	=22	=22	=22	=22	=22	=22	=22	=22	=22	=22	=22
.	.	4A/	.	8cc#\L	.	1ryy	.	1ryy	.	1ryy	.	8cc#\L	e-	1ryy	1ryy
.	.	.	.	8a\J	.	.	.	.	.	.	.	8a,<\J	-jus,	.	.
*	*	*	*	*custos:a	*	*	*	*	*	*	*	*	*	*	*
!	!	!	!	!LO:LB:g=original	!	!	!	!	!	!	!	!	!	!	!
.	.	8r	.	8r	.	.	.	.	.	.	.	4.dd\	non	.	.
.	.	8d/	.	8a/	.	.	.	.	.	.	.	.	.	.	.
.	.	4f#/	.	4a/	.	.	.	.	.	.	.	.	.	.	.
.	.	.	.	.	.	.	.	.	.	.	.	8a\	n(on)	.	.
.	.	8r	.	8r	.	.	.	.	.	.	.	4ee\	n(on)	.	.
.	.	8g/	.	8b/	.	.	.	.	.	.	.	.	.	.	.
=23	=23	=23	=23	=23	=23	=23	=23	=23	=23	=23	=23	=23	=23	=23	=23
!	!	!	!	!	!	!	!	!	!	!	!	!LO:N:xstem:cue	!	!	!
2rBB	.	4a/	.	4cc#\	.	1ryy	.	1ryy	.	1ryy	.	8ee\	.	1ryy	1ryy
.	.	.	.	.	.	.	.	.	.	.	.	8a\	n(on)	.	.
*	*	*	*	*	*	*	*	*	*	*	*	*custos:ff	*	*	*
!	!	!	!	!	!	!	!	!	!	!	!	!LO:LB:g=original	!	!	!
.	.	4d/	.	4f#/	.	.	.	.	.	.	.	8ff#\	non	.	.
.	.	.	.	.	.	.	.	.	.	.	.	8a\	frau-	.	.
4r	.	4A/	.	4e/	.	.	.	.	.	.	.	8gg\	-da-	.	.
.	.	.	.	.	.	.	.	.	.	.	.	8a\	-ſti,	.	.
8r	.	4r	.	4r	.	.	.	.	.	.	.	(16ff#\LL	non	.	.
.	.	.	.	.	.	.	.	.	.	.	.	16ee\JJ)	.	.	.
8A\	.	.	.	.	.	.	.	.	.	.	.	(16dd\LL	frau-	.	.
.	.	.	.	.	.	.	.	.	.	.	.	16cc#\JJ)	.	.	.
!	!	!LO:LB:g=original	!	!	!	!	!	!	!	!	!	!	!	!	!
=24	=24	=24	=24	=24	=24	=24	=24	=24	=24	=24	=24	=24	=24	=24	=24
!LO:TX:a:t=P:problem=mixed beam	!	!	!	!	!	!	!	!	!	!	!	!	!	!	!
8B\L	.	2r	.	2r	.	1ryy	.	1ryy	.	1ryy	.	8dd\	-da-	1ryy	1ryy
8G\	6	.	.	.	.	.	.	.	.	.	.	8ee\	-ſti	.	.
8A\	.	.	.	.	.	.	.	.	.	.	.	(8a\L	e-	.	.
8AA/J	.	.	.	.	.	.	.	.	.	.	.	8cc#\J)	.	.	.
4D/	.	4r	.	4r	.	.	.	.	.	.	.	4dd,<\	-um,	.	.
4r	.	8r	.	8r	.	.	.	.	.	.	.	8dd\	n(on)	.	.
!	!	!	!LO:DY:a:t=pp&colon;	!	!LO:DY:b:t=pp.	!	!	!	!	!	!	!	!	!	!
.	.	8f#/	pp	8a/	pp	.	.	.	.	.	.	8dd\	frau-	.	.
!LO:LB:g=original	!	!	!	!	!	!	!	!	!	!	!	!	!	!	!
=25	=25	=25	=25	=25	=25	=25	=25	=25	=25	=25	=25	=25	=25	=25	=25
*	*	*	*	*	*	*	*	*	*	*	*	*2\right	*	*	*
2r	.	16g/LL	.	16b/LL	.	1ryy	.	1ryy	.	1ryy	.	2ddT\	-da-	1ryy	1ryy
.	.	16f#/	.	16a/	.	.	.	.	.	.	.	.	.	.	.
.	.	16e/	.	16g/	.	.	.	.	.	.	.	.	.	.	.
.	.	16f#/JJ	.	16a/JJ	.	.	.	.	.	.	.	.	.	.	.
.	.	(16g/LL	.	(16b/LL	.	.	.	.	.	.	.	.	.	.	.
.	.	16f#/)	.	16a/)	.	.	.	.	.	.	.	.	.	.	.
.	.	(16g/	.	(16b/	.	.	.	.	.	.	.	.	.	.	.
.	.	16f#/JJ)	.	16a/JJ)	.	.	.	.	.	.	.	.	.	.	.
4r	.	4g/	.	8b/L	.	.	.	.	.	.	.	4dd,<\	-ſti,	.	.
.	.	.	.	8g/J	.	.	.	.	.	.	.	.	.	.	.
8r	.	4r	.	4r	.	.	.	.	.	.	.	8b\	non	.	.
8E\	#	.	.	.	.	.	.	.	.	.	.	8ee\	frau-	.	.
=26	=26	=26	=26	=26	=26	=26	=26	=26	=26	=26	=26	=26	=26	=26	=26
!LO:TX:a:t=P:problem=mixed beam	!	!	!	!	!	!	!	!	!	!	!	!	!	!	!
8A\L	#	2r	.	4r	.	1ryy	.	1ryy	.	1ryy	.	(16cc#\LL	-da-	1ryy	1ryy
.	.	.	.	.	.	.	.	.	.	.	.	16dd\JJ)	.	.	.
8D\	.	.	.	.	.	.	.	.	.	.	.	(16ee\LL	-ſti	.	.
.	.	.	.	.	.	.	.	.	.	.	.	16ff#\JJ)	.	.	.
8E\	6 4	.	.	16r	.	.	.	.	.	.	.	(8cc#\L	e-	.	.
!	!	!	!	!	!LO:DY:b:t=forte	!	!	!	!	!	!	!	!	!	!
.	.	.	.	16e/LL	f	.	.	.	.	.	.	.	.	.	.
8EE/J	5 #	.	.	16f#/	.	.	.	.	.	.	.	16b\L	.	.	.
.	.	.	.	16g#X/JJ	.	.	.	.	.	.	.	16a\JJ)	.	.	.
!	!	!	!LO:DY:a:t=fortè	!	!	!	!	!	!	!	!	!	!	!	!
8AA/L	.	4e/	f	4a/	.	.	.	.	.	.	.	4a\	-um	.	.
8C#/J	6	.	.	.	.	.	.	.	.	.	.	.	.	.	.
!LO:TX:a:t=P:problem=mixed beam	!	!	!	!	!	!	!	!	!	!	!	!	!	!	!
8E\L	#	4g#X/	.	4b/	.	.	.	.	.	.	.	4r	.	.	.
8EE/J	.	.	.	.	.	.	.	.	.	.	.	.	.	.	.
!	!	!	!	!	!	!	!	!	!	!	!	!LO:LB:g=original	!	!	!
=27	=27	=27	=27	=27	=27	=27	=27	=27	=27	=27	=27	=27	=27	=27	=27
4AA/	.	8e/L	.	8cc#\L	.	1ryy	.	1ryy	.	1ryy	.	00r	.	1ryy	1ryy
.	.	16d/L	.	16b\L	.	.	.	.	.	.	.	.	.	.	.
.	.	16e/JJ	.	16cc#\JJ	.	.	.	.	.	.	.	.	.	.	.
8r	.	8c#/L	.	8a/L	.	.	.	.	.	.	.	.	.	.	.
8E\	#	8B/J	.	8g#X/J	.	.	.	.	.	.	.	.	.	.	.
4F#\	.	8f#/L	.	8a/L	.	.	.	.	.	.	.	.	.	.	.
.	.	16g#X/L	.	16b/L	.	.	.	.	.	.	.	.	.	.	.
.	.	16a/JJ	.	16cc#/JJ	.	.	.	.	.	.	.	.	.	.	.
8D/L	6	8B/L	.	8f#/L	.	.	.	.	.	.	.	.	.	.	.
8BB/J	.	8d/J	.	8b/J	.	.	.	.	.	.	.	.	.	.	.
!	!	!	!	!LO:LB:g=original	!	!	!	!	!	!	!	!	!	!	!
=28	=28	=28	=28	=28	=28	=28	=28	=28	=28	=28	=28	=28	=28	=28	=28
8E\L	#	4B/	.	8g#X/L	.	1ryy	.	1ryy	.	1ryy	.	.	.	1ryy	1ryy
16E\L	.	.	.	8e/J	.	.	.	.	.	.	.	.	.	.	.
16D\JJ	.	.	.	.	.	.	.	.	.	.	.	.	.	.	.
8C#/L	6	8rg	.	8r	.	.	.	.	.	.	.	.	.	.	.
8AA/J	.	8cc#\	.	8ee\	.	.	.	.	.	.	.	.	.	.	.
8D/L	.	16dd\LL	.	16ff#\LL	.	.	.	.	.	.	.	.	.	.	.
.	.	16cc#\	.	16ee\	.	.	.	.	.	.	.	.	.	.	.
8AA/J	.	16b\	.	16dd\	.	.	.	.	.	.	.	.	.	.	.
.	.	16cc#\JJ	.	16ee\JJ	.	.	.	.	.	.	.	.	.	.	.
8r	.	(16dd\LL	.	(16ff#\LL	.	.	.	.	.	.	.	.	.	.	.
.	.	16cc#\)	.	16ee\)	.	.	.	.	.	.	.	.	.	.	.
8AA/	.	(16dd\	.	(16ff#\	.	.	.	.	.	.	.	.	.	.	.
.	.	16cc#\JJ)	.	16ee\JJ)	.	.	.	.	.	.	.	.	.	.	.
=29	=29	=29	=29	=29	=29	=29	=29	=29	=29	=29	=29	=29	=29	=29	=29
8D/L	.	16dd\LL|	.	16ff#\LL	.	1ryy	.	1ryy	.	1ryy	.	.	.	1ryy	1ryy
.	.	16cc#\	.	16ee\	.	.	.	.	.	.	.	.	.	.	.
8AA/	.	16b\	.	16dd\	.	.	.	.	.	.	.	.	.	.	.
.	.	16cc#\JJ	.	16ee\JJ	.	.	.	.	.	.	.	.	.	.	.
8D/	.	16dd\LL	.	16ff#\LL	.	.	.	.	.	.	.	.	.	.	.
.	.	16ee\	.	16gg\	.	.	.	.	.	.	.	.	.	.	.
8BB/J	.	16ff#\	.	16aa\	.	.	.	.	.	.	.	.	.	.	.
.	.	16dd\JJ	.	16bb\JJ	.	.	.	.	.	.	.	.	.	.	.
!LO:TX:a:t=P:problem=mixed beam	!	!	!	!	!	!	!	!	!	!	!	!	!	!	!
8AA/L	.	16cc#\LL	.	16ee\LL	.	.	.	.	.	.	.	.	.	.	.
.	.	16b\	.	16dd\	.	.	.	.	.	.	.	.	.	.	.
8E\J	7 #	16a\	.	16cc#\	.	.	.	.	.	.	.	.	.	.	.
.	.	16b\JJ	.	16dd\JJ	.	.	.	.	.	.	.	.	.	.	.
*	*	*custos:cc	*	*	*	*	*	*	*	*	*	*	*	*	*
!	!	!LO:LB:g=original	!	!	!	!	!	!	!	!	!	!	!	!	!
8r	.	(16cc#\LL	.	(16ee\LL	.	.	.	.	.	.	.	.	.	.	.
.	.	16b\)	.	16dd\)	.	.	.	.	.	.	.	.	.	.	.
8E\	7 #	(16cc#\	.	(16ee\	.	.	.	.	.	.	.	.	.	.	.
.	.	16b\JJ)	.	16dd\JJ)	.	.	.	.	.	.	.	.	.	.	.
=30	=30	=30	=30	=30	=30	=30	=30	=30	=30	=30	=30	=30	=30	=30	=30
8A\L	.	16cc#\LL|	.	16ee\LL	.	1ryy	.	1ryy	.	1ryy	.	.	.	1ryy	1ryy
.	.	16b\	.	16dd\	.	.	.	.	.	.	.	.	.	.	.
8E\J	7 #	16a\	.	16cc#\	.	.	.	.	.	.	.	.	.	.	.
.	.	16b\JJ	.	16dd\JJ	.	.	.	.	.	.	.	.	.	.	.
8A\L	.	16cc#\LL	.	16ee\LL	.	.	.	.	.	.	.	.	.	.	.
.	.	16dd\	.	16ff#\	.	.	.	.	.	.	.	.	.	.	.
8F#\J	.	16ee\	.	16gg#X\	.	.	.	.	.	.	.	.	.	.	.
.	.	16cc#\JJ	.	16aa\JJ	.	.	.	.	.	.	.	.	.	.	.
*custos:E	*	*	*	*	*	*	*	*	*	*	*	*	*	*	*
!LO:LB:g=original	!	!	!	!	!	!	!	!	!	!	!	!	!	!	!
8E\L	7_ #_	16b/LL	.	16dd\LL	.	.	.	.	.	.	.	.	.	.	.
.	.	16a/	.	16cc#\	.	.	.	.	.	.	.	.	.	.	.
8E\	.	16g#X/	.	16b\	.	.	.	.	.	.	.	.	.	.	.
.	.	16a/JJ	.	16cc#\JJ	.	.	.	.	.	.	.	.	.	.	.
8E\	.	(16b/LL	.	(16dd\LL	.	.	.	.	.	.	.	.	.	.	.
.	.	16a/)	.	16cc#\)	.	.	.	.	.	.	.	.	.	.	.
8E\J	.	(16b/	.	(16dd\	.	.	.	.	.	.	.	.	.	.	.
.	.	16a/JJ)	.	16cc#\JJ)	.	.	.	.	.	.	.	.	.	.	.
=31	=31	=31	=31	=31	=31	=31	=31	=31	=31	=31	=31	=31	=31	=31	=31
4E\	7 #	16b/LL	.	16dd\LL	.	1ryy	.	1ryy	.	1ryy	.	1r	.	1ryy	1ryy
.	.	16a/	.	16cc#\	.	.	.	.	.	.	.	.	.	.	.
.	.	16g#X/	.	16b\	.	.	.	.	.	.	.	.	.	.	.
.	.	16a/JJ	.	16cc#\JJ	.	.	.	.	.	.	.	.	.	.	.
*	*	*	*	*custos:dd	*	*	*	*	*	*	*	*	*	*	*
!	!	!	!	!LO:LB:g=original	!	!	!	!	!	!	!	!	!	!	!
8r	.	8b/L	.	8dd\L	.	.	.	.	.	.	.	.	.	.	.
8E\	#	8g#X/J	.	8ee\J	.	.	.	.	.	.	.	.	.	.	.
!LO:TX:a:t=P:problem=mixed beam	!	!	!	!	!	!	!	!	!	!	!	!	!	!	!
8A\L	.	8e/L	.	8cc#\L	.	.	.	.	.	.	.	.	.	.	.
8D\	6	8f#/J	.	16b\L	.	.	.	.	.	.	.	.	.	.	.
.	5	.	.	16a\JJ	.	.	.	.	.	.	.	.	.	.	.
8E\	6 4	8B/L	.	8e/L	.	.	.	.	.	.	.	.	.	.	.
8EE/J	5 #	8e/J	.	8g#X/J	.	.	.	.	.	.	.	.	.	.	.
=32	=32	=32	=32	=32	=32	=32	=32	=32	=32	=32	=32	=32	=32	=32	=32
4AA/	.	4c#/	.	4a/	.	1ryy	.	1ryy	.	1ryy	.	4a\	De-	1ryy	1ryy
4r	.	4r	.	4r	.	.	.	.	.	.	.	4b\	-si-	.	.
4AA/	.	2r	.	2r	.	.	.	.	.	.	.	(8cc#\L	-de-	.	.
.	.	.	.	.	.	.	.	.	.	.	.	16b\L	.	.	.
.	.	.	.	.	.	.	.	.	.	.	.	16cc#\JJ)	.	.	.
4BB/	7	.	.	.	.	.	.	.	.	.	.	8a\	-ri-	.	.
.	6\	.	.	.	.	.	.	.	.	.	.	8g#X/	-um	.	.
=33	=33	=33	=33	=33	=33	=33	=33	=33	=33	=33	=33	=33	=33	=33	=33
4C#/	6	2r	.	2r	.	1ryy	.	1ryy	.	1ryy	.	(8a\L	a-	1ryy	1ryy
.	.	.	.	.	.	.	.	.	.	.	.	16b\L	.	.	.
.	.	.	.	.	.	.	.	.	.	.	.	16cc#\JJ)	.	.	.
4D/	5	.	.	.	.	.	.	.	.	.	.	8f#/	-ni-	.	.
.	6	.	.	.	.	.	.	.	.	.	.	8b\	-ma	.	.
8E\L	#	4r	.	4r	.	.	.	.	.	.	.	8g#X/	e-	.	.
16E\L	.	.	.	.	.	.	.	.	.	.	.	8e/	-jus	.	.
16D\JJ	.	.	.	.	.	.	.	.	.	.	.	.	.	.	.
!	!	!	!LO:DY:a:t=piano	!	!LO:DY:a:t=piano	!	!	!	!	!	!	!	!	!	!
8C#/L	6	8r	p	8r	p	.	.	.	.	.	.	4r	.	.	.
8AA/J	.	8cc#\	.	8ee\	.	.	.	.	.	.	.	.	.	.	.
=34	=34	=34	=34	=34	=34	=34	=34	=34	=34	=34	=34	=34	=34	=34	=34
8D/L	.	8a/L	.	16dd\LL	.	1ryy	.	1ryy	.	1ryy	.	(16ff#\LL	tri-	1ryy	1ryy
.	.	.	.	16cc#\	.	.	.	.	.	.	.	16ee\JJ)	.	.	.
8AA/J	.	8a/	.	16b\	.	.	.	.	.	.	.	(16dd\LL	-bu-	.	.
.	.	.	.	16cc#\JJ	.	.	.	.	.	.	.	16ee\JJ)	.	.	.
4r	.	8a/	.	(16dd\LL	.	.	.	.	.	.	.	(16ff#\LL	-i-	.	.
.	.	.	.	16cc#\)	.	.	.	.	.	.	.	16ee\JJ)	.	.	.
.	.	8a/J	.	(16dd\	.	.	.	.	.	.	.	(16ff#\LL	-ſti	.	.
.	.	.	.	16cc#\JJ)	.	.	.	.	.	.	.	16ee\JJ)	.	.	.
4AA/	6 4	4a/	.	16dd\LL	.	.	.	.	.	.	.	16ff#\LL	e-	.	.
.	5 3	.	.	16cc#\	.	.	.	.	.	.	.	16ee\	.	.	.
.	.	.	.	16b\	.	.	.	.	.	.	.	16dd\	.	.	.
.	.	.	.	16cc#\JJ	.	.	.	.	.	.	.	16ee\JJ	.	.	.
!	!	!	!	!LO:TX:a:t=P:problem=mixed beam	!	!	!	!	!	!	!	!	!	!	!
4r	.	4r	.	16dd\LL	.	.	.	.	.	.	.	16ff#\LL	.	.	.
.	.	.	.	16g#X/	.	.	.	.	.	.	.	16ee\JJ	.	.	.
.	.	.	.	16a/	.	.	.	.	.	.	.	(16ff#\LL	-i,	.	.
.	.	.	.	16b/JJ	.	.	.	.	.	.	.	16dd\JJ)	.	.	.
=35	=35	=35	=35	=35	=35	=35	=35	=35	=35	=35	=35	=35	=35	=35	=35
8A\L	.	8e/L	.	16cc#\LL	.	1ryy	.	1ryy	.	1ryy	.	(16ee\LL	tri-	1ryy	1ryy
.	.	.	.	16b\	.	.	.	.	.	.	.	16dd\JJ)	.	.	.
8C#\J	#	8e/	.	16a\	.	.	.	.	.	.	.	(16cc#\LL	-bu-	.	.
.	.	.	.	16b\JJ	.	.	.	.	.	.	.	16dd\JJ)	.	.	.
*	*	*	*	*	*	*	*	*	*	*	*	*custos:ee	*	*	*
!	!	!	!	!	!	!	!	!	!	!	!	!LO:LB:g=original	!	!	!
4r	.	8e/	.	(16cc#\LL	.	.	.	.	.	.	.	(16ee\LL	-i-	.	.
.	.	.	.	16b\)	.	.	.	.	.	.	.	16dd\JJ)	.	.	.
.	.	8e/J	.	(16cc#\	.	.	.	.	.	.	.	(16ee\LL	-ſti	.	.
.	.	.	.	16b\JJ)	.	.	.	.	.	.	.	16dd\JJ)	.	.	.
4E\	8 6	8a/L	.	16cc#\LL	.	.	.	.	.	.	.	16ee\LL	e-	.	.
.	7 5	.	.	16b\	.	.	.	.	.	.	.	16dd\	.	.	.
.	.	8e/J	.	16a\	.	.	.	.	.	.	.	16cc#\	.	.	.
.	.	.	.	16b\JJ	.	.	.	.	.	.	.	16dd\JJ	.	.	.
!	!	!	!	!LO:TX:a:t=P:problem=mixed beam	!	!	!	!	!	!	!	!	!	!	!
4r	.	4r	.	16cc#\LL	.	.	.	.	.	.	.	16ee\LL	.	.	.
.	.	.	.	16f#/	.	.	.	.	.	.	.	16dd\JJ	.	.	.
.	.	.	.	16g#X/	.	.	.	.	.	.	.	(16ee\LL	-i	.	.
.	.	.	.	16a/JJ	.	.	.	.	.	.	.	16cc#\JJ)	.	.	.
!	!	!LO:LB:g=original	!	!LO:LB:g=original	!	!	!	!	!	!	!	!	!	!	!
=36	=36	=36	=36	=36	=36	=36	=36	=36	=36	=36	=36	=36	=36	=36	=36
4E\	7 #	8e/L	.	16b/LL	.	1ryy	.	1ryy	.	1ryy	.	(16dd\LL	tri-	1ryy	1ryy
.	.	.	.	16a/	.	.	.	.	.	.	.	16cc#\JJ)	.	.	.
.	.	8e/	.	16g#X/	.	.	.	.	.	.	.	(16b\LL	-bu-	.	.
.	.	.	.	16a/JJ	.	.	.	.	.	.	.	16cc#\JJ)	.	.	.
4r	.	8e/	.	(16b/LL	.	.	.	.	.	.	.	(16dd\LL	-i-	.	.
.	.	.	.	16a/)	.	.	.	.	.	.	.	16cc#\JJ)	.	.	.
.	.	8e/J	.	(16b/	.	.	.	.	.	.	.	(16dd\LL	-ſti	.	.
.	.	.	.	16a/JJ)	.	.	.	.	.	.	.	16cc#\JJ)	.	.	.
4E\	7 #	4e/	.	16b/LL	.	.	.	.	.	.	.	(16dd\LL	Do-	.	.
.	.	.	.	16a/	.	.	.	.	.	.	.	16cc#\JJ)	.	.	.
.	.	.	.	16g#X/	.	.	.	.	.	.	.	(16b\LL	-mi-	.	.
.	.	.	.	16a/JJ	.	.	.	.	.	.	.	16cc#\JJ)	.	.	.
8r	.	4r	.	8b/	.	.	.	.	.	.	.	8dd,<\	-ne,	.	.
8E\	8	.	.	8r	.	.	.	.	.	.	.	16ee\	tri-	.	.
.	7 #	.	.	.	.	.	.	.	.	.	.	16dd\	-bu-	.	.
!LO:LB:g=original	!	!	!	!	!	!	!	!	!	!	!	!	!	!	!
=37	=37	=37	=37	=37	=37	=37	=37	=37	=37	=37	=37	=37	=37	=37	=37
!LO:TX:a:t=P:problem=mixed beam	!	!	!	!	!	!	!	!	!	!	!	!	!	!	!
8A\L	.	2r	.	2r	.	1ryy	.	1ryy	.	1ryy	.	8cc#\	-i-	1ryy	1ryy
8D\	6	.	.	.	.	.	.	.	.	.	.	(16b\LL	-ſti	.	.
.	5	.	.	.	.	.	.	.	.	.	.	16a\JJ)	.	.	.
8E\	#	.	.	.	.	.	.	.	.	.	.	4g#Xt/	e-	.	.
8EE/J	.	.	.	.	.	.	.	.	.	.	.	.	.	.	.
!LO:TX:a:t=P:problem=mixed beam	!	!	!	!	!LO:DY:a:t=for.	!	!	!	!	!	!	!	!	!	!
8AA/L	.	16r	.	16r	f	.	.	.	.	.	.	8a\	-i	.	.
!	!	!	!LO:DY:a:t=fortè	!	!	!	!	!	!	!	!	!	!	!	!
.	.	16cc#\LL	f	16ee\LL	.	.	.	.	.	.	.	.	.	.	.
8E\J	#	16dd\	.	16ff#\	.	.	.	.	.	.	.	8r	.	.	.
.	.	16b\JJ	.	16gg#X\JJ	.	.	.	.	.	.	.	.	.	.	.
!LO:TX:a:t=P:problem=mixed beam	!	!LO:TX:a:t=P:problem=mixed beam	!	!LO:TX:a:t=P:problem=mixed beam	!	!	!	!	!	!	!	!	!	!	!
8AA/L	.	8cc#\L	.	8aa\L	.	.	.	.	.	.	.	8r	.	.	.
16A\L	.	8c#/J	.	8a/J	.	.	.	.	.	.	.	8a\	et	.	.
16Gn\JJ	.	.	.	.	.	.	.	.	.	.	.	.	.	.	.
=38	=38	=38	=38	=38	=38	=38	=38	=38	=38	=38	=38	=38	=38	=38	=38
!	!	!	!LO:DY:a:t=piano	!	!LO:DY:a:t=piano	!	!	!	!	!	!	!	!	!	!
4F#\	6	4d/	p	4dd\	p	1ryy	.	1ryy	.	1ryy	.	4dd\	vo-	1ryy	1ryy
4E\	6	8g/L	.	4ee\	.	.	.	.	.	.	.	4ee\	-lun-	.	.
.	.	8a/J	.	.	.	.	.	.	.	.	.	.	.	.	.
*	*	*	*	*	*	*	*	*	*	*	*	*custos:ff	*	*	*
!	!	!	!	!	!	!	!	!	!	!	!	!LO:LB:g=original	!	!	!
4D/	.	4d/	.	8ff#\L	.	.	.	.	.	.	.	8ff#\	-ta-	.	.
.	.	.	.	16ee\L	.	.	.	.	.	.	.	(16ee\LL	-te	.	.
.	.	.	.	16ff#\JJ	.	.	.	.	.	.	.	16ff#\JJ)	.	.	.
4r	.	8r	.	8dd\L	.	.	.	.	.	.	.	8dd\	la-	.	.
.	.	8A/	.	8cc#\J	.	.	.	.	.	.	.	8cc#\	-bio-	.	.
=39	=39	=39	=39	=39	=39	=39	=39	=39	=39	=39	=39	=39	=39	=39	=39
0r	.	8B/L	.	8dd\L	.	1ryy	.	1ryy	.	1ryy	.	(8dd\L	.	1ryy	1ryy
.	.	8b/	.	16ee\L	.	.	.	.	.	.	.	16ee\L	.	.	.
.	.	.	.	16ff#\JJ	.	.	.	.	.	.	.	16ff#\JJ)	.	.	.
.	.	8g/	.	8b\L	.	.	.	.	.	.	.	(8b\L	-rum	.	.
.	.	8e/J	.	8ee\J	.	.	.	.	.	.	.	8ee\J)	.	.	.
.	.	4A/	.	8cc#\L	.	.	.	.	.	.	.	8cc#\	e-	.	.
.	.	.	.	8a\J	.	.	.	.	.	.	.	8a,<\	-jus,	.	.
.	.	8r	.	8r	.	.	.	.	.	.	.	4dd\	non	.	.
.	.	8d/	.	8a/	.	.	.	.	.	.	.	.	.	.	.
=40	=40	=40	=40	=40	=40	=40	=40	=40	=40	=40	=40	=40	=40	=40	=40
!	!	!	!	!	!	!	!	!	!	!	!	!LO:N:xstem:cue	!	!	!
.	.	4f#/	.	4a/	.	1ryy	.	1ryy	.	1ryy	.	8dd\	.	1ryy	1ryy
.	.	.	.	.	.	.	.	.	.	.	.	8a\	n(on)	.	.
.	.	8r	.	8r	.	.	.	.	.	.	.	4.ee\	n(on)	.	.
.	.	8g/	.	8b/	.	.	.	.	.	.	.	.	.	.	.
.	.	4a/	.	4cc#\	.	.	.	.	.	.	.	.	.	.	.
.	.	.	.	.	.	.	.	.	.	.	.	8a\	n(on)	.	.
.	.	4d/	.	4f#/	.	.	.	.	.	.	.	8ff#\	n(on)	.	.
.	.	.	.	.	.	.	.	.	.	.	.	8a\	frau-	.	.
!	!	!	!	!LO:LB:g=original	!	!	!	!	!	!	!	!	!	!	!
=41	=41	=41	=41	=41	=41	=41	=41	=41	=41	=41	=41	=41	=41	=41	=41
4r	.	4A/	.	4e/	.	1ryy	.	1ryy	.	1ryy	.	8gg\	-da-	1ryy	1ryy
.	.	.	.	.	.	.	.	.	.	.	.	8a,<\	-ſti,	.	.
8r	.	4r	.	4r	.	.	.	.	.	.	.	(16ff#\LL	non	.	.
.	.	.	.	.	.	.	.	.	.	.	.	16ee\JJ)	.	.	.
8A\	.	.	.	.	.	.	.	.	.	.	.	(16dd\LL	frau-	.	.
.	.	.	.	.	.	.	.	.	.	.	.	16cc#\JJ)	.	.	.
!LO:TX:a:t=P:problem=mixed beam	!	!	!	!	!LO:DY:a:t=for&colon;	!	!	!	!	!	!	!	!	!	!
8B\L	.	2r	.	4r	f	.	.	.	.	.	.	8dd\	-da-	.	.
8G\	6	.	.	.	.	.	.	.	.	.	.	8ee\	-ſti	.	.
8A\	4	.	.	16r	.	.	.	.	.	.	.	(8a\L	e-	.	.
.	.	.	.	16a/LL	.	.	.	.	.	.	.	.	.	.	.
8AA/J	3	.	.	16b/	.	.	.	.	.	.	.	8cc#\J)	.	.	.
.	.	.	.	16cc#/JJ	.	.	.	.	.	.	.	.	.	.	.
=42	=42	=42	=42	=42	=42	=42	=42	=42	=42	=42	=42	=42	=42	=42	=42
!LO:TX:a:t=P:problem=mixed beam	!	!	!LO:DY:a:t=for&colon;	!	!	!	!	!	!	!	!	!	!	!	!
8D\L	.	4a/	f	4dd\	.	1ryy	.	1ryy	.	1ryy	.	4dd\	-um.	1ryy	1ryy
8F#\	6	.	.	.	.	.	.	.	.	.	.	.	.	.	.
8A\	.	4cc#\	.	4ee\	.	.	.	.	.	.	.	4r	.	.	.
8AA/J	.	.	.	.	.	.	.	.	.	.	.	.	.	.	.
4D/	.	8a/L	.	8ff#\L	.	.	.	.	.	.	.	2r	.	.	.
.	.	16g/L	.	16ee\L	.	.	.	.	.	.	.	.	.	.	.
.	.	16a/JJ	.	16ff#\JJ	.	.	.	.	.	.	.	.	.	.	.
8r	.	8f#/L	.	8dd\L	.	.	.	.	.	.	.	.	.	.	.
8A\	.	8e/J	.	8cc#\J	.	.	.	.	.	.	.	.	.	.	.
=43	=43	=43	=43	=43	=43	=43	=43	=43	=43	=43	=43	=43	=43	=43	=43
4B\	.	8b\L	.	8dd\L	.	1ryy	.	1ryy	.	1ryy	.	00r	.	1ryy	1ryy
.	.	16cc#\L	.	16ee\L	.	.	.	.	.	.	.	.	.	.	.
.	.	16dd\JJ	.	16ff#\JJ	.	.	.	.	.	.	.	.	.	.	.
8G\L	6	8e/L	.	8b\L	.	.	.	.	.	.	.	.	.	.	.
8E\J	.	8g/J	.	8ee\J	.	.	.	.	.	.	.	.	.	.	.
*	*	*custos:e	*	*	*	*	*	*	*	*	*	*	*	*	*
!	!	!LO:LB:g=original	!	!	!	!	!	!	!	!	!	!	!	!	!
!LO:TX:a:t=P:problem=mixed beam	!	!	!	!	!	!	!	!	!	!	!	!	!	!	!
8AA/L	.	4e/	.	8cc#\L	.	.	.	.	.	.	.	.	.	.	.
16A\L	.	.	.	8a\J	.	.	.	.	.	.	.	.	.	.	.
16G\JJ	.	.	.	.	.	.	.	.	.	.	.	.	.	.	.
8F#\L	6	8r	.	8r	.	.	.	.	.	.	.	.	.	.	.
8D\J	.	8f#/	.	8a/	.	.	.	.	.	.	.	.	.	.	.
=44	=44	=44	=44	=44	=44	=44	=44	=44	=44	=44	=44	=44	=44	=44	=44
8G\L	.	16g/LL	.	16b/LL|	.	1ryy	.	1ryy	.	1ryy	.	.	.	1ryy	1ryy
.	.	16f#/	.	16a/|	.	.	.	.	.	.	.	.	.	.	.
8D\J	.	16e/	.	16g/|	.	.	.	.	.	.	.	.	.	.	.
.	.	16f#/JJ	.	16a/JJ|	.	.	.	.	.	.	.	.	.	.	.
8r	.	(16g/LL	.	(16b/LL	.	.	.	.	.	.	.	.	.	.	.
.	.	16f#/)	.	16a/)	.	.	.	.	.	.	.	.	.	.	.
8D\	.	(16g/	.	(16b/	.	.	.	.	.	.	.	.	.	.	.
.	.	16f#/JJ)	.	16a/JJ)	.	.	.	.	.	.	.	.	.	.	.
*custos:G	*	*	*	*	*	*	*	*	*	*	*	*	*	*	*
!LO:LB:g=original	!	!	!	!	!	!	!	!	!	!	!	!	!	!	!
8G\L	.	16g/LL|	.	16b/LL|	.	.	.	.	.	.	.	.	.	.	.
.	.	16f#/	.	16a/	.	.	.	.	.	.	.	.	.	.	.
8D\	.	16e/	.	16g/	.	.	.	.	.	.	.	.	.	.	.
.	.	16f#/JJ	.	16a/JJ	.	.	.	.	.	.	.	.	.	.	.
8G\	.	16g/LL	.	16b\LL	.	.	.	.	.	.	.	.	.	.	.
.	.	16a/	.	16cc#\	.	.	.	.	.	.	.	.	.	.	.
8E\J	.	16b/	.	16dd\	.	.	.	.	.	.	.	.	.	.	.
.	.	16g/JJ	.	16ee\JJ	.	.	.	.	.	.	.	.	.	.	.
=45	=45	=45	=45	=45	=45	=45	=45	=45	=45	=45	=45	=45	=45	=45	=45
8D/L	.	16f#/LL	.	16a/LL|	.	1ryy	.	1ryy	.	1ryy	.	.	.	1ryy	1ryy
.	.	16e/	.	16g/|	.	.	.	.	.	.	.	.	.	.	.
8AA/J	7	16d/	.	16f#/|	.	.	.	.	.	.	.	.	.	.	.
.	.	16e/JJ	.	16g/JJ|	.	.	.	.	.	.	.	.	.	.	.
8r	.	(16f#/LL	.	(16a/LL	.	.	.	.	.	.	.	.	.	.	.
.	.	16e/)	.	16g/)	.	.	.	.	.	.	.	.	.	.	.
8AA/	7	(16f#/	.	(16a/	.	.	.	.	.	.	.	.	.	.	.
.	.	16e/JJ)	.	16g/JJ)	.	.	.	.	.	.	.	.	.	.	.
*	*	*	*	*custos:a	*	*	*	*	*	*	*	*	*	*	*
!	!	!	!	!LO:PB:g=original	!	!	!	!	!	!	!	!	!	!	!
8D/L	.	16f#/LL|	.	16a/LL|	.	.	.	.	.	.	.	.	.	.	.
.	.	16e/	.	16g/	.	.	.	.	.	.	.	.	.	.	.
8AA/	.	16d/	.	16f#/	.	.	.	.	.	.	.	.	.	.	.
.	.	16e/JJ	.	16g/JJ	.	.	.	.	.	.	.	.	.	.	.
8D/	.	16f#/LL	.	16a\LL	.	.	.	.	.	.	.	.	.	.	.
.	.	16g/	.	16b\	.	.	.	.	.	.	.	.	.	.	.
8BB/J	.	16a/	.	16cc#\	.	.	.	.	.	.	.	.	.	.	.
.	.	16f#/JJ	.	16dd\JJ	.	.	.	.	.	.	.	.	.	.	.
=46	=46	=46	=46	=46	=46	=46	=46	=46	=46	=46	=46	=46	=46	=46	=46
8AA/L	7_	16g/LL	.	16ee\LL|	.	1ryy	.	1ryy	.	1ryy	.	.	.	1ryy	1ryy
.	.	16f#/	.	16dd\|	.	.	.	.	.	.	.	.	.	.	.
8AA/	.	16e/	.	16cc#\|	.	.	.	.	.	.	.	.	.	.	.
.	.	16f#/JJ	.	16dd\JJ|	.	.	.	.	.	.	.	.	.	.	.
8AA/	.	(16g/LL	.	(16ee\LL	.	.	.	.	.	.	.	.	.	.	.
.	.	16f#/)	.	16dd\)	.	.	.	.	.	.	.	.	.	.	.
8AA/J	.	(16g/	.	(16ee\	.	.	.	.	.	.	.	.	.	.	.
.	.	16f#/JJ)	.	16dd\JJ)	.	.	.	.	.	.	.	.	.	.	.
4AA/	.	16g/LL|	.	16ee\LL	.	.	.	.	.	.	.	.	.	.	.
.	X	16f#/	.	16dd\	.	.	.	.	.	.	.	.	.	.	.
.	.	16e/	.	16cc#\	.	.	.	.	.	.	.	.	.	.	.
.	.	16f#/JJ	.	16dd\JJ	.	.	.	.	.	.	.	.	.	.	.
!	!	!LO:TX:a:t=P:problem=mixed beam	!	!	!	!	!	!	!	!	!	!	!	!	!
4r	.	8g/L	.	8ee\L	.	.	.	.	.	.	.	.	.	.	.
.	.	8cc#\J	.	8aa\J	.	.	.	.	.	.	.	.	.	.	.
=47	=47	=47	=47	=47	=47	=47	=47	=47	=47	=47	=47	=47	=47	=47	=47
!LO:TX:a:t=P:problem=mixed beam	!	!	!	!	!	!	!	!	!	!	!	!	!	!	!
8D\L	.	4a/	.	4dd\	.	1ryy	.	1ryy	.	1ryy	.	00r	.	1ryy	1ryy
8F#\	.	.	.	.	.	.	.	.	.	.	.	.	.	.	.
8A\	.	4cc#\	.	4ee\	.	.	.	.	.	.	.	.	.	.	.
8AA/J	.	.	.	.	.	.	.	.	.	.	.	.	.	.	.
4D/	.	8a/L	.	8ff#\L	.	.	.	.	.	.	.	.	.	.	.
.	.	16g/L	.	16ee\L	.	.	.	.	.	.	.	.	.	.	.
.	.	16a/JJ	.	16ff#\JJ	.	.	.	.	.	.	.	.	.	.	.
8r	.	8f#/L	.	8dd\L	.	.	.	.	.	.	.	.	.	.	.
8A\	.	8e/J	.	8cc#\J	.	.	.	.	.	.	.	.	.	.	.
=48	=48	=48	=48	=48	=48	=48	=48	=48	=48	=48	=48	=48	=48	=48	=48
4B\	.	8b\L	.	8dd\L	.	1ryy	.	1ryy	.	1ryy	.	.	.	1ryy	1ryy
.	.	16cc#\L	.	16ee\L	.	.	.	.	.	.	.	.	.	.	.
.	.	16dd\JJ	.	16ff#\JJ	.	.	.	.	.	.	.	.	.	.	.
8G\L	.	8e/L	.	8b\L	.	.	.	.	.	.	.	.	.	.	.
8E\J	.	8g/J	.	8ee\J	.	.	.	.	.	.	.	.	.	.	.
4AA/	.	4e/	.	8cc#\L	.	.	.	.	.	.	.	.	.	.	.
.	.	.	.	8a\J	.	.	.	.	.	.	.	.	.	.	.
*	*	*custos:f	*	*	*	*	*	*	*	*	*	*	*	*	*
!	!	!LO:LB:g=original	!	!	!	!	!	!	!	!	!	!	!	!	!
8r	.	8r	.	4dd\	.	.	.	.	.	.	.	.	.	.	.
8D/	.	8f#/	.	.	.	.	.	.	.	.	.	.	.	.	.
=49	=49	=49	=49	=49	=49	=49	=49	=49	=49	=49	=49	=49	=49	=49	=49
!	!	!	!	!LO:N:xstem:cue	!	!	!	!	!	!	!	!	!	!	!
4F#\	6	4a/	.	8dd\	.	1ryy	.	1ryy	.	1ryy	.	.	.	1ryy	1ryy
.	.	.	.	8a/	.	.	.	.	.	.	.	.	.	.	.
8r	.	8r	.	4.ee\	.	.	.	.	.	.	.	.	.	.	.
8G\	6	8b/	.	.	.	.	.	.	.	.	.	.	.	.	.
4A\	.	4cc#\	.	.	.	.	.	.	.	.	.	.	.	.	.
.	.	.	.	8a/	.	.	.	.	.	.	.	.	.	.	.
!	!	!	!	!LO:TX:a:t=P:problem=mixed beam	!	!	!	!	!	!	!	!	!	!	!
4D/	.	4a/	.	8ff#\L	.	.	.	.	.	.	.	.	.	.	.
.	.	.	.	8a/J	.	.	.	.	.	.	.	.	.	.	.
!	!	!	!	!LO:LB:g=original	!	!	!	!	!	!	!	!	!	!	!
=50	=50	=50	=50	=50	=50	=50	=50	=50	=50	=50	=50	=50	=50	=50	=50
!	!	!	!	!LO:TX:a:t=P:problem=mixed beam	!	!	!	!	!	!	!	!	!	!	!
4E\	.	8ee\L	.	8gg\L	.	1ryy	.	1ryy	.	1ryy	.	.	.	1ryy	1ryy
.	.	8a\J	.	8a\J	.	.	.	.	.	.	.	.	.	.	.
8r	.	8cc#\L	.	8aa\L	.	.	.	.	.	.	.	.	.	.	.
8A\	.	16ff#\L	.	16dd\L	.	.	.	.	.	.	.	.	.	.	.
.	.	16ee\JJ	.	16cc#\JJ	.	.	.	.	.	.	.	.	.	.	.
!LO:TX:a:t=P:problem=mixed beam	!	!	!	!	!	!	!	!	!	!	!	!	!	!	!
8F#\L	6	8ff#\L	.	8dd\L	.	.	.	.	.	.	.	.	.	.	.
8G\	6	8b\J	.	8ee\	.	.	.	.	.	.	.	.	.	.	.
8A\	5 4	8e/L	.	8a\	.	.	.	.	.	.	.	.	.	.	.
8AA/J	x 3	8a/J	.	8cc#\J	.	.	.	.	.	.	.	.	.	.	.
!LO:LB:g=original	!	!	!	!	!	!	!	!	!	!	!	!LO:PB:g=original	!	!	!
=51	=51	=51	=51	=51	=51	=51	=51	=51	=51	=51	=51	=51;;	=51	=51	=51
!LO:TX:b:t=Fine	!	!LO:TX:a:t=Finis	!	!	!	!	!	!	!	!	!	!	!	!	!
4D;;/	.	4f#;;/	.	4dd;;\	.	1ryy	.	1ryy	.	1ryy	.	2r	.	1ryy	1ryy
8F#\L	#	4r	.	4rg	.	.	.	.	.	.	.	.	.	.	.
8FF#/J	.	.	.	.	.	.	.	.	.	.	.	.	.	.	.
4BB/	n	2r	.	2r	.	.	.	.	.	.	.	(8ff#\L	Po-	.	.
.	.	.	.	.	.	.	.	.	.	.	.	8ee\J)	.	.	.
4r	.	.	.	.	.	.	.	.	.	.	.	(8dd\L	-su-	.	.
.	.	.	.	.	.	.	.	.	.	.	.	8ee\J)	.	.	.
=52	=52	=52	=52	=52	=52	=52	=52	=52	=52	=52	=52	=52	=52	=52	=52
8F#\L	#	0r	.	0r	.	1ryy	.	1ryy	.	1ryy	.	(8a#X\L	-i-	1ryy	1ryy
8D\J	6	.	.	.	.	.	.	.	.	.	.	8b\J)	.	.	.
8AA#X/L	6	.	.	.	.	.	.	.	.	.	.	8cc#,<\	-ſti,	.	.
8BB/J	n	.	.	.	.	.	.	.	.	.	.	8dd\	in	.	.
!LO:TX:a:t=P:problem=mixed beam	!	!	!	!	!	!	!	!	!	!	!	!	!	!	!
8C#/L	3	.	.	.	.	.	.	.	.	.	.	16ee\LL	Ca-	.	.
.	.	.	.	.	.	.	.	.	.	.	.	16dd\	.	.	.
8c#\	.	.	.	.	.	.	.	.	.	.	.	16ee\	.	.	.
.	.	.	.	.	.	.	.	.	.	.	.	16ff#\JJ	.	.	.
8A#X\	6 5	.	.	.	.	.	.	.	.	.	.	16ee\LL	.	.	.
.	.	.	.	.	.	.	.	.	.	.	.	16cc#\	.	.	.
8F#\J	7 #	.	.	.	.	.	.	.	.	.	.	16ff#\	.	.	.
.	.	.	.	.	.	.	.	.	.	.	.	16ee\JJ	.	.	.
=53	=53	=53	=53	=53	=53	=53	=53	=53	=53	=53	=53	=53	=53	=53	=53
8BB/L	n	.	.	.	.	1ryy	.	1ryy	.	1ryy	.	8.dd\	.	1ryy	1ryy
8C#/	6\	.	.	.	.	.	.	.	.	.	.	.	.	.	.
.	.	.	.	.	.	.	.	.	.	.	.	16cc#\	-pi-	.	.
8D/	6	.	.	.	.	.	.	.	.	.	.	8b,<\	-te,	.	.
8E/J	6	.	.	.	.	.	.	.	.	.	.	8cc#\	in	.	.
4F#\	#	.	.	.	.	.	.	.	.	.	.	(8a#X\L	Ca-	.	.
.	.	.	.	.	.	.	.	.	.	.	.	8b\J)	.	.	.
8r	.	.	.	.	.	.	.	.	.	.	.	8cc#\	-pi-	.	.
8BB/	n	.	.	.	.	.	.	.	.	.	.	(16dd\LL	-te	.	.
.	.	.	.	.	.	.	.	.	.	.	.	16b\JJ)	.	.	.
=54	=54	=54	=54	=54	=54	=54	=54	=54	=54	=54	=54	=54	=54	=54	=54
8F#\L	#_	2r	.	4r	.	1ryy	.	1ryy	.	1ryy	.	8cc#\	e-	1ryy	1ryy
8E\J	.	.	.	.	.	.	.	.	.	.	.	8f#/	-jus	.	.
8D/L	6	.	.	16r	.	.	.	.	.	.	.	4r	.	.	.
.	.	.	.	16f#/LL	.	.	.	.	.	.	.	.	.	.	.
8C#/J	6\	.	.	16g#X/	.	.	.	.	.	.	.	.	.	.	.
.	.	.	.	16a#X/JJ	.	.	.	.	.	.	.	.	.	.	.
8BB/L	n	4f#/	.	4b/	.	.	.	.	.	.	.	2r	.	.	.
8D/J	6	.	.	.	.	.	.	.	.	.	.	.	.	.	.
!LO:TX:a:t=P:problem=mixed beam	!	!	!	!	!	!	!	!	!	!	!	!	!	!	!
8F#\L	#	4a#X/	.	4cc#\	.	.	.	.	.	.	.	.	.	.	.
8FF#/J	.	.	.	.	.	.	.	.	.	.	.	.	.	.	.
=55	=55	=55	=55	=55	=55	=55	=55	=55	=55	=55	=55	=55	=55	=55	=55
4BB/	n	8f#/L	.	8dd\L	.	1ryy	.	1ryy	.	1ryy	.	0r	.	1ryy	1ryy
.	.	16e/L	.	16cc#\L	.	.	.	.	.	.	.	.	.	.	.
.	.	16f#/JJ	.	16dd\JJ	.	.	.	.	.	.	.	.	.	.	.
8r	.	8d/L	.	8b/L	.	.	.	.	.	.	.	.	.	.	.
8F#\	#	8c#/J	.	8a#X/J	.	.	.	.	.	.	.	.	.	.	.
4G\	.	8g/L	.	8b\L	.	.	.	.	.	.	.	.	.	.	.
.	.	16a/L	.	16cc#\L	.	.	.	.	.	.	.	.	.	.	.
.	.	16b/JJ	.	16dd\JJ	.	.	.	.	.	.	.	.	.	.	.
8E\L	.	8e/L	.	8cc#\L	.	.	.	.	.	.	.	.	.	.	.
8C#\J	.	8g/J	.	8b\J	.	.	.	.	.	.	.	.	.	.	.
=56	=56	=56	=56	=56	=56	=56	=56	=56	=56	=56	=56	=56	=56	=56	=56
4F#\	#	4c#/	.	8a#X/L	.	1ryy	.	1ryy	.	1ryy	.	.	.	1ryy	1ryy
.	.	.	.	8f#/J	.	.	.	.	.	.	.	.	.	.	.
8r	.	8r	.	4.b/	.	.	.	.	.	.	.	.	.	.	.
8BB/	.	8d/	.	.	.	.	.	.	.	.	.	.	.	.	.
4.D/	6	4.f#/	.	.	.	.	.	.	.	.	.	.	.	.	.
.	.	.	.	8f#/	.	.	.	.	.	.	.	.	.	.	.
.	.	.	.	4cc#\	.	.	.	.	.	.	.	.	.	.	.
8E\	6	8g/	.	.	.	.	.	.	.	.	.	.	.	.	.
!LO:PB:g=original	!	!	!	!	!	!	!	!	!	!	!	!	!	!	!
=57	=57	=57	=57	=57	=57	=57	=57	=57	=57	=57	=57	=57	=57	=57	=57
!	!	!	!	!LO:N:xstem:cue	!	!	!	!	!	!	!	!	!	!	!
4F#\	#	4a#X/	.	8cc#\	.	1ryy	.	1ryy	.	1ryy	.	1r	.	1ryy	1ryy
!	!	!	!	!LO:SIC:v:s=8a#	!	!	!	!	!	!	!	!	!	!	!
.	.	.	.	8a/	.	.	.	.	.	.	.	.	.	.	.
!	!	!	!	!LO:TX:a:t=P:problem=mixed beam	!	!	!	!	!	!	!	!	!	!	!
4BB/	n	4f#/	.	8dd\L	.	.	.	.	.	.	.	.	.	.	.
.	.	.	.	8f#/J	.	.	.	.	.	.	.	.	.	.	.
*	*	*custos:cc	*	*custos:ee	*	*	*	*	*	*	*	*	*	*	*
!	!	!LO:LB:g=original	!	!LO:LB:g=original	!	!	!	!	!	!	!	!	!	!	!
!	!	!LO:TX:a:t=P:problem=mixed beam	!	!LO:TX:a:t=P:problem=mixed beam	!	!	!	!	!	!	!	!	!	!	!
4C#/	3	8cc#\L	.	8ee/L	.	.	.	.	.	.	.	.	.	.	.
.	.	8f#/J	.	8f#/J	.	.	.	.	.	.	.	.	.	.	.
8r	.	8a#X\L	.	8ff#\L	.	.	.	.	.	.	.	.	.	.	.
8F#\	#	16dd\L	.	16b\L	.	.	.	.	.	.	.	.	.	.	.
.	.	16cc#\JJ	.	16a#X\JJ	.	.	.	.	.	.	.	.	.	.	.
=58	=58	=58	=58	=58	=58	=58	=58	=58	=58	=58	=58	=58	=58	=58	=58
!LO:TX:a:t=P:problem=mixed beam	!	!LO:TX:a:t=P:problem=mixed beam	!	!	!	!	!	!	!	!	!	!	!	!	!
8B\L	.	8dd\L	.	8b\L	.	1ryy	.	1ryy	.	1ryy	.	2r	.	1ryy	1ryy
8E\	6	8g/J	.	8cc#\J	.	.	.	.	.	.	.	.	.	.	.
8F#\	5 4	8c#/L	.	8f#/L	.	.	.	.	.	.	.	.	.	.	.
8FF#/J	x #	8f#/J	.	8a#X/J	.	.	.	.	.	.	.	.	.	.	.
4BB/	n	4f#/	.	4b\	.	.	.	.	.	.	.	(8ff#\L	po-	.	.
.	.	.	.	.	.	.	.	.	.	.	.	8dd\J)	.	.	.
4r	.	4r	.	4r	.	.	.	.	.	.	.	(8b\L	-su-	.	.
.	.	.	.	.	.	.	.	.	.	.	.	8cc#\J)	.	.	.
!	!	!	!	!	!	!	!	!	!	!	!	!LO:LB:g=original	!	!	!
=59	=59	=59	=59	=59	=59	=59	=59	=59	=59	=59	=59	=59	=59	=59	=59
8F#\L	#	0r	.	0r	.	1ryy	.	1ryy	.	1ryy	.	(8a#X\L	-i-	1ryy	1ryy
8D\J	6	.	.	.	.	.	.	.	.	.	.	8b\J)	.	.	.
8AA#X/L	6	.	.	.	.	.	.	.	.	.	.	8cc#\	-ſti	.	.
8BB/J	n	.	.	.	.	.	.	.	.	.	.	8dd\	in	.	.
!LO:TX:a:t=P:problem=mixed beam	!	!	!	!	!	!	!	!	!	!	!	!	!	!	!
8C#/L	3	.	.	.	.	.	.	.	.	.	.	16ee\LL	Ca-	.	.
.	.	.	.	.	.	.	.	.	.	.	.	16dd\	.	.	.
8c#\	.	.	.	.	.	.	.	.	.	.	.	16ee\	.	.	.
.	.	.	.	.	.	.	.	.	.	.	.	16ff#\JJ	.	.	.
8A#X\	5	.	.	.	.	.	.	.	.	.	.	16ee\LL	.	.	.
.	.	.	.	.	.	.	.	.	.	.	.	16cc#\	.	.	.
8F#\J	7 #	.	.	.	.	.	.	.	.	.	.	16ff#\	.	.	.
.	.	.	.	.	.	.	.	.	.	.	.	16ee\JJ	.	.	.
=60	=60	=60	=60	=60	=60	=60	=60	=60	=60	=60	=60	=60	=60	=60	=60
8BB/L	n	.	.	.	.	1ryy	.	1ryy	.	1ryy	.	8.dd\	.	1ryy	1ryy
8C#/	6\	.	.	.	.	.	.	.	.	.	.	.	.	.	.
.	.	.	.	.	.	.	.	.	.	.	.	16cc#\	-pi-	.	.
8D/	6	.	.	.	.	.	.	.	.	.	.	8b,<\	-te,	.	.
8E/J	6	.	.	.	.	.	.	.	.	.	.	8cc#\	in	.	.
4F#\	#	.	.	.	.	.	.	.	.	.	.	8.a#X\	Ca-	.	.
.	.	.	.	.	.	.	.	.	.	.	.	16b\	-pi-	.	.
8r	.	.	.	.	.	.	.	.	.	.	.	(8cc#\L	-te-	.	.
8BB/	n	.	.	.	.	.	.	.	.	.	.	16dd\L	.	.	.
.	.	.	.	.	.	.	.	.	.	.	.	16cc#\JJ)	.	.	.
=61	=61	=61	=61	=61	=61	=61	=61	=61	=61	=61	=61	=61	=61	=61	=61
4F#\	#	4r	.	4r	.	1ryy	.	1ryy	.	1ryy	.	16cc#\LL	-e-	1ryy	1ryy
.	.	.	.	.	.	.	.	.	.	.	.	16b\	.	.	.
.	.	.	.	.	.	.	.	.	.	.	.	16a#X\	.	.	.
.	.	.	.	.	.	.	.	.	.	.	.	16g\JJ	.	.	.
!	!	!	!LO:DY:a:t=piano	!	!LO:DY:a:t=piano	!	!	!	!	!	!	!	!	!	!
8r	.	8r	p	8r	p	.	.	.	.	.	.	8f#,</	-jus,	.	.
8BB/	n	8d/	.	8b/	.	.	.	.	.	.	.	8ff#\	Co-	.	.
4F#\	#	8f#/L	.	(16a#X/LL	.	.	.	.	.	.	.	[<2ff#tt\	-ro-	.	.
.	.	.	.	16f#/)	.	.	.	.	.	.	.	.	.	.	.
.	.	8a#X/J	.	(16cc#/	.	.	.	.	.	.	.	.	.	.	.
.	.	.	.	16f#/JJ)	.	.	.	.	.	.	.	.	.	.	.
4r	.	8gn/L	.	(16b/LL	.	.	.	.	.	.	.	.	.	.	.
.	.	.	.	16f#/)	.	.	.	.	.	.	.	.	.	.	.
.	.	8b/J	.	(16dd/	.	.	.	.	.	.	.	.	.	.	.
.	.	.	.	16f#/JJ)	.	.	.	.	.	.	.	.	.	.	.
=62	=62	=62	=62	=62	=62	=62	=62	=62	=62	=62	=62	=62	=62	=62	=62
4F#\	#	8a#X\L	.	(16cc#\LL	.	1ryy	.	1ryy	.	1ryy	.	2ff#\]	.	1ryy	1ryy
.	.	.	.	16f#\)	.	.	.	.	.	.	.	.	.	.	.
.	.	8cc#\J	.	(16ee\	.	.	.	.	.	.	.	.	.	.	.
.	.	.	.	16f#\JJ)	.	.	.	.	.	.	.	.	.	.	.
4r	.	8b\L	.	(16dd\LL	.	.	.	.	.	.	.	.	.	.	.
.	.	.	.	16f#\)	.	.	.	.	.	.	.	.	.	.	.
.	.	8dd\J	.	(16ff#\	.	.	.	.	.	.	.	.	.	.	.
.	.	.	.	16f#\JJ)	.	.	.	.	.	.	.	.	.	.	.
4F#\	7 #	4c#/	.	4a#X/	.	.	.	.	.	.	.	4e/	-nam	.	.
4r	.	4r	.	4r	.	.	.	.	.	.	.	8r	.	.	.
.	.	.	.	.	.	.	.	.	.	.	.	8ff#\	Co-	.	.
=63	=63	=63	=63	=63	=63	=63	=63	=63	=63	=63	=63	=63	=63	=63	=63
4BB/	#	1r	.	4r	.	1ryy	.	1ryy	.	1ryy	.	(8ff#\L	-ro-	1ryy	1ryy
.	.	.	.	.	.	.	.	.	.	.	.	8dd#X\J)	.	.	.
8r	.	.	.	8r	.	.	.	.	.	.	.	8b\	-na(m)	.	.
*	*	*	*	*	*	*	*	*	*	*	*	*custos	*	*	*
8BB/	#_	.	.	8ff#\	.	.	.	.	.	.	.	8a\	de	.	.
*	*	*	*	*	*	*	*	*	*	*	*	*custos:a	*	*	*
!	!	!	!	!	!	!	!	!	!	!	!	!LO:LB:g=original	!	!	!
8BB/L	.	.	.	8ff#\L	.	.	.	.	.	.	.	8a\	la-	.	.
8BB/J	.	.	.	16ee\L	.	.	.	.	.	.	.	(16g/LL	-pi-	.	.
.	.	.	.	16dd#X\JJ	.	.	.	.	.	.	.	16f#/JJ)	.	.	.
4E\	n	.	.	4ee\	.	.	.	.	.	.	.	8g,</	-de,	.	.
.	.	.	.	.	.	.	.	.	.	.	.	8ee\	Co-	.	.
!LO:LB:g=original	!	!	!	!	!	!	!	!	!	!	!	!	!	!	!
=64	=64	=64	=64	=64	=64	=64	=64	=64	=64	=64	=64	=64	=64	=64	=64
!	!	!	!	!	!	!	!	!	!	!	!	!LO:TX:a:t=P:problem=poprawione caudy	!	!	!
4A\	.	2r	.	4r	.	1ryy	.	1ryy	.	1ryy	.	(8ee\L	-ro-	1ryy	1ryy
.	.	.	.	.	.	.	.	.	.	.	.	8cc#\J)	.	.	.
8r	.	.	.	8r	.	.	.	.	.	.	.	8a\	-na(m)	.	.
8AA/L	7_	.	.	8ee\	.	.	.	.	.	.	.	8g/	de	.	.
8AA/	.	4r	.	8ee\L	.	.	.	.	.	.	.	8g/	la-	.	.
8AA/J	.	.	.	16dd\L	.	.	.	.	.	.	.	(16f#/LL	-pi-	.	.
.	X	.	.	16cc#\JJ	.	.	.	.	.	.	.	16e/JJ)	.	.	.
*	*	*	*	*custos:dd	*	*	*	*	*	*	*	*	*	*	*
!	!	!	!	!LO:LB:g=original	!	!	!	!	!	!	!	!	!	!	!
8D\L	.	8r	.	8dd\L	.	.	.	.	.	.	.	8f#,</	-de,	.	.
!	!	!	!LO:DY:a:t=pp&colon;	!	!	!	!	!	!	!	!	!	!	!	!
8G\J	.	8d/	pp	8b\J	.	.	.	.	.	.	.	8dd\	Co-	.	.
=65	=65	=65	=65	=65	=65	=65	=65	=65	=65	=65	=65	=65	=65	=65	=65
4D/	.	8d/L	.	(16f#/LL	.	1ryy	.	1ryy	.	1ryy	.	[<1ddTT	-ro-	1ryy	1ryy
.	.	.	.	16d/)	.	.	.	.	.	.	.	.	.	.	.
.	.	8f#/	.	(16a/	.	.	.	.	.	.	.	.	.	.	.
.	.	.	.	16d/JJ)	.	.	.	.	.	.	.	.	.	.	.
4r	.	8e/	.	(16g/LL	.	.	.	.	.	.	.	.	.	.	.
.	.	.	.	16d/)	.	.	.	.	.	.	.	.	.	.	.
.	.	8g/J	.	(16b/	.	.	.	.	.	.	.	.	.	.	.
.	.	.	.	16d/JJ)	.	.	.	.	.	.	.	.	.	.	.
*	*	*custos:f	*	*	*	*	*	*	*	*	*	*	*	*	*
!	!	!LO:PB:g=original	!	!	!	!	!	!	!	!	!	!	!	!	!
4D/	-7	8f#/L	.	(16a/LL	.	.	.	.	.	.	.	.	.	.	.
.	.	.	.	16d/)	.	.	.	.	.	.	.	.	.	.	.
.	.	8a/	.	(16cc-X/	.	.	.	.	.	.	.	.	.	.	.
.	.	.	.	16d/JJ)	.	.	.	.	.	.	.	.	.	.	.
4r	.	8g/	.	(16b/LL	.	.	.	.	.	.	.	.	.	.	.
.	.	.	.	16d/)	.	.	.	.	.	.	.	.	.	.	.
.	.	8b/J	.	(16dd/	.	.	.	.	.	.	.	.	.	.	.
.	.	.	.	16d/JJ)	.	.	.	.	.	.	.	.	.	.	.
=66	=66	=66	=66	=66	=66	=66	=66	=66	=66	=66	=66	=66	=66	=66	=66
4D/	.	4A/	.	4f#/	.	1ryy	.	1ryy	.	1ryy	.	8dd\L]	.	1ryy	1ryy
.	.	.	.	.	.	.	.	.	.	.	.	16ee\L	.	.	.
.	.	.	.	.	.	.	.	.	.	.	.	16ff#\JJ	.	.	.
8BB/L	6	4r	.	4r	.	.	.	.	.	.	.	8gg,<\	-na(m),	.	.
8GG/J	.	.	.	.	.	.	.	.	.	.	.	8b\	de	.	.
8E\L	.	2r	.	2r	.	.	.	.	.	.	.	(16ee\LL	la-	.	.
.	.	.	.	.	.	.	.	.	.	.	.	16dd\JJ)	.	.	.
16F#\L	.	.	.	.	.	.	.	.	.	.	.	16cc-X\	-pi-	.	.
16G\JJ	.	.	.	.	.	.	.	.	.	.	.	16b\	-de	.	.
8A\L	-	.	.	.	.	.	.	.	.	.	.	8a\	pre-	.	.
8G\J	.	.	.	.	.	.	.	.	.	.	.	16b\LL	-ti-	.	.
.	.	.	.	.	.	.	.	.	.	.	.	16cc-X\JJ	.	.	.
=67	=67	=67	=67	=67	=67	=67	=67	=67	=67	=67	=67	=67	=67	=67	=67
8F#\L	.	0r	.	1r	.	1ryy	.	1ryy	.	1ryy	.	16dd\LL	-o-	1ryy	1ryy
!	!	!	!	!	!	!	!	!	!	!	!	!LO:TX:a:t=P:problem=♭ above	!	!	!
.	.	.	.	.	.	.	.	.	.	.	.	16cc-X\	.	.	.
16G\L	.	.	.	.	.	.	.	.	.	.	.	16b\	.	.	.
!	!	!	!	!	!	!	!	!	!	!	!	!LO:TX:a:t=a	!	!	!
16A\JJ	.	.	.	.	.	.	.	.	.	.	.	16a\JJ	.	.	.
!LO:TX:a:t=P:problem=mixed beam	!	!	!	!	!	!	!	!	!	!	!	!	!	!	!
8B\L	6	.	.	.	.	.	.	.	.	.	.	8g,</	-so,	.	.
8C-X/J	6	.	.	.	.	.	.	.	.	.	.	(16a\LL	pre-	.	.
.	5	.	.	.	.	.	.	.	.	.	.	16g\JJ)	.	.	.
*	*	*	*	*	*	*	*	*	*	*	*	*custos:f	*	*	*
!	!	!	!	!	!	!	!	!	!	!	!	!LO:LB:g=original	!	!	!
8D/L	.	.	.	.	.	.	.	.	.	.	.	(8f#\L	-ti-	.	.
8C-X/	.	.	.	.	.	.	.	.	.	.	.	16g\L	.	.	.
.	.	.	.	.	.	.	.	.	.	.	.	16a\JJ)	.	.	.
8D/	6 4	.	.	.	.	.	.	.	.	.	.	(8b\L	-o-	.	.
8DD/J	5 3	.	.	.	.	.	.	.	.	.	.	16a\L	.	.	.
.	.	.	.	.	.	.	.	.	.	.	.	16g\JJ)	.	.	.
=68	=68	=68	=68	=68-	=68	=68	=68	=68	=68	=68	=68	=68	=68	=68	=68
4GG/	.	.	.	2r	.	1ryy	.	1ryy	.	1ryy	.	8g,</	-so	1ryy	1ryy
.	.	.	.	.	.	.	.	.	.	.	.	16gg\	po-	.	.
.	.	.	.	.	.	.	.	.	.	.	.	16dd\	-su-	.	.
8r	.	.	.	.	.	.	.	.	.	.	.	8b\	-i-	.	.
8G\	.	.	.	.	.	.	.	.	.	.	.	8g/	-ſti.	.	.
8F#\L	6	.	.	4r	.	.	.	.	.	.	.	2r	.	.	.
16E\L	.	.	.	.	.	.	.	.	.	.	.	.	.	.	.
16D\JJ	.	.	.	.	.	.	.	.	.	.	.	.	.	.	.
!	!	!	!	!	!LO:DY:a:t=for&colon;	!	!	!	!	!	!	!	!	!	!
8E\L	7	.	.	16r	f	.	.	.	.	.	.	.	.	.	.
.	.	.	.	16a/LL	.	.	.	.	.	.	.	.	.	.	.
8A\J	#	.	.	16b/	.	.	.	.	.	.	.	.	.	.	.
!	!	!LO:TX:a:B:t=R.	!	!	!	!	!	!	!	!	!	!LO:TX:a:t=R	!	!	!
!LO:TX:b:t=Da Capo usq(ue)\n ad Signu(m) Finis	!	!LO:TX:b:B:t=Desiderium Da Capo usq(ue) ad Signum Finis	!	!LO:TX:b:B:t=Desiderium Da Capo\nusq(ue) ad Signum	!	!	!	!	!	!	!	!LO:TX:b:t=Desiderium Da Capo\nusque ad Signum	!	!	!
.	.	.	.	16cc#/JJ	.	.	.	.	.	.	.	.	.	.	.
!LO:LB:g=original	!	!LO:LB:g=original	!	!LO:LB:g=original	!	!	!	!	!	!	!	!LO:LB:g=original	!	!	!
=69:|!	=69:|!	=69:|!	=69:|!	=69:|!	=69:|!	=69:|!	=69:|!	=69:|!	=69:|!	=69:|!	=69:|!	=69:|!	=69:|!	=69:|!	=69:|!
*>C	*	*>C	*	*>C	*	*>C	*	*>C	*	*>C	*	*>C	*	*>C	*>C
!LO:TX:b:B:t=Juſtus ut palma.	!	!LO:TX:a:B:t=Vivacè Tutti.	!	!LO:TX:a:B:t=Vivace Tutti.	!	!LO:TX:a:B:t=Vivacè Tutti.	!	!	!	!	!	!	!	!LO:TX:b:B:t=Juſtus ut palma.	!LO:TX:b:B:t=Juſtus ut palma.
!LO:TX:a:B:t=Vivacè Tutti.	!	!LO:TX:b:B:t=Juſtus ut palma.	!	!LO:TX:b:B:t=Juſtus ut palma.	!	!	!	!LO:TX:a:B:t=Vivace. Tutti	!	!LO:TX:a:B:t=Vivacè Tutti.	!	!LO:TX:a:B:t=Vivacè Tutti	!	!LO:TX:a:B:t=Vivace Tutti.	!LO:TX:a:B:t=Vivacè Tutti
8D/L	.	16dd\LL	.	16dd\LL	.	8D/	Ju-	8A/	Ju-	8f#\	Ju-	8dd\	Ju-	8dd\L	8ff#\L
.	.	16dd\	.	16dd\	.	.	.	.	.	.	.	.	.	.	.
8D/J	.	16dd\	.	16dd\	.	8D/	-ſtus	8A/	-ſtus	8f#\	-ſtus	8dd\	-ſtus	16dd\L	16ff#\L
.	.	16dd\JJ	.	16dd\JJ	.	.	.	.	.	.	.	.	.	16dd\JJ	16ff#\JJ
8r	.	16dd\LL	.	16dd\LL	.	8r	.	8r	.	8r	.	8r	.	16dd\LL	16ff#\LL
.	.	16ee\	.	16ee\	.	.	.	.	.	.	.	.	.	16ee\	16gg\
8D/	.	16ff#\	.	16ff#\	.	8D/	ut	8d\	ut	8a\	ut	8ff#\	ut	16ff#\	16aa\
.	.	16dd\JJ	.	16dd\JJ	.	.	.	.	.	.	.	.	.	16dd\JJ	16ff#\JJ
!	!	!LO:TX:a:t=P:problem=mixed beam	!	!LO:TX:a:t=P:problem=mixed beam	!	!	!	!	!	!	!	!	!	!	!
8A\L	.	16ee\LL	.	16ee\LL	.	(8A\L	pal-	(8c#\L	pal-	(8a\L	pal-	(8ee\L	pal-	8a/L	8ee\L
.	.	16a/	.	16a/	.	.	.	.	.	.	.	.	.	.	.
8B\	.	16a/	.	16a/	.	8B\J)	.	8d\J)	.	8g\J)	.	8dd\J)	.	8f#/J	8dd\J
.	.	16a/JJ	.	16a/JJ	.	.	.	.	.	.	.	.	.	.	.
!	!	!	!	!	!	!	!	!	!	!	!	!	!	!LO:TX:a:t=P:problem=mixed beam	!
8c#\	.	16aa\LL	.	16aa\LL	.	8c#\	-ma	8c#,<\	-ma,	8a\	-ma	8ee\	-ma	16a/LL	16ee\LL
.	.	16gg\	.	16gg\	.	.	.	.	.	.	.	.	.	16a/	16ff#\
8A\J	.	16ff#\	.	16ff#\	.	8A\	flo-	8e\	flo-	8e\	flo-	8cc#\	flo-	16ee\	16gg\
.	.	16ee\JJ	.	16ee\JJ	.	.	.	.	.	.	.	.	.	16ee\JJ	16aa\JJ
=70	=70	=70	=70	=70	=70	=70	=70	=70	=70	=70	=70	=70	=70	=70	=70
!	!	!	!	!	!	!	!	!	!	!	!	!	!	!LO:TX:a:t=P:problem=mixed beam	!
16d\LL	.	8dd\L	.	8ff#\L	.	16d\LL	-re-	4d\	-re-	16f#\LL	-re-	16dd\LL	-re-	8dd\L	8ff#\L
16c#\	6	.	.	.	.	16c#\	.	.	.	16e\	.	16ee\	.	.	.
16d\	.	8a\J	.	8ee\J	.	16d\	.	.	.	16f#\	.	16dd\	.	8a/J	8ee\J
16c#\JJ	.	.	.	.	.	16c#\JJ	.	.	.	16e\JJ	.	16ee\JJ	.	.	.
16d\LL	.	8r	.	16r	.	16d\LL	.	8A,</	-bit,	16f#\LL	.	16dd\LL	.	8r	8r
16c#\	.	.	.	16ee\LL	.	16c#\	.	.	.	16e\	.	16ee\	.	.	.
*	*	*	*	*	*	*	*	*	*ij	*	*	*	*	*	*
16d\	.	8a/	.	16ee\	.	16d\	.	8A/	flo-	16f#\	.	16dd\	.	8a/	8ee\
16c#\JJ	.	.	.	16ee\JJ	.	16c#\JJ	.	.	.	16e\JJ	.	16ee\JJ	.	.	.
*	*	*	*	*	*	*	*	*	*	*	*	*	*	*custos:dd	*
!	!	!	!	!	!	!	!	!	!	!	!	!	!	!LO:LB:g=original	!
8d\L	.	16dd\LL	.	16ff#\LL	.	8d\	.	8A/	-re-	8f#\	.	8dd\	.	16dd\LL	16ff#\LL
.	.	16cc#\	.	16ee\	.	.	.	.	.	.	.	.	.	16ee\	16gg\
8A\J	.	16dd\	.	16ff#\	.	8A\	-bit	8A/	-bit	8e\	-bit	8cc#\	-bit	16ff#\	16aa\
*	*	*	*	*	*	*	*	*	*Xij	*	*	*	*	*	*
.	.	16cc#\JJ	.	16ee\JJ	.	.	.	.	.	.	.	.	.	16ee\JJ	16gg\JJ
8r	.	16dd\LL	.	16ff#\LL	.	8r	.	8r	.	8r	.	8r	.	16dd\LL	16ff#\LL
.	.	16cc#\	.	16ee\	.	.	.	.	.	.	.	.	.	16ee\	16gg\
8AA/	.	16dd\	.	16ff#\	.	8A\	flo-	8c#\	flo-	8a\	flo-	8ee\	flo-	16ff#\	16aa\
.	.	16cc#\JJ	.	16ee\JJ	.	.	.	.	.	.	.	.	.	16ee\JJ	16gg\JJ
!	!	!	!	!	!	!LO:LB:g=original	!	!	!	!LO:LB:g=original	!	!	!	!	!LO:LB:g=original
=71	=71	=71	=71	=71	=71	=71	=71	=71	=71	=71	=71	=71	=71	=71	=71
!	!	!	!	!	!	!	!	!	!	!	!	!	!	!LO:TX:a:t=P:problem=mixed beam	!
16D/LL	.	8dd\L	.	8ff#\L	.	16d\LL	-re-	16d\LL	-re-	4a\	-re-	16ff#\LL	-re-	8dd\L	8ff#\L
16C#/	6	.	.	.	.	16c#\	.	16e\	.	.	.	16ee\	.	.	.
16D/	.	8a\J	.	8ee\J	.	16d\	.	16d\	.	.	.	16ff#\	.	8a/J	8ee\J
16C#/JJ	6	.	.	.	.	16c#\JJ	.	16e\JJ	.	.	.	16ee\JJ	.	.	.
*	*	*	*	*	*	*	*	*custos:d	*	*	*	*	*	*	*
!	!	!	!	!	!	!	!	!LO:LB:g=original	!	!	!	!	!	!	!
16D/LL	.	16r	.	16r	.	16d\LL	.	16d\LL	.	8a,<\	-bit,	16ff#\LL	.	8r	8r
16C#/	.	16a/LL	.	16ee\LL	.	16c#\	.	16e\	.	.	.	16ee\	.	.	.
*	*	*	*	*	*	*	*	*	*	*	*ij	*	*	*	*
16D/	.	16a/	.	16ee\	.	16d\	.	16d\	.	8a\	flo-	16ff#\	.	8a/	8ee\
16C#/JJ	.	16a/JJ	.	16ee\JJ	.	16c#\JJ	.	16e\JJ	.	.	.	16ee\JJ	.	.	.
8D/L	.	16dd\LL	.	16ff#\LL	.	8d\	.	8d\	.	8a\	-re-	8ff#\	.	16dd\LL	16ff#\LL
.	.	16cc#\	.	16ee\	.	.	.	.	.	.	.	.	.	16ee\	16gg\
8AA/J	.	16dd\	.	16ff#\	.	8A\	-bit	8c#\	-bit	8a\	-bit,	8ee\	-bit	16ff#\	16aa\
.	.	16cc#\JJ	.	16ee\JJ	.	.	.	.	.	.	.	.	.	16ee\JJ	16gg\JJ
8r	.	16dd\LL	.	16ff#\LL	.	8r	.	8r	.	8r	.	8r	.	16dd\LL	16ff#\LL
.	.	16cc#\	.	16ee\	.	.	.	.	.	.	.	.	.	16ee\	16gg\
8F#\	#	16dd\	.	16ff#\	.	8F#\	flo-	8c#\	flo-	8a#X\	flo-	8ff#\	flo-	16ff#\	16aa\
.	.	16cc#\JJ	.	16ee\JJ	.	.	.	.	.	.	.	.	.	16ee\JJ	16gg\JJ
=72	=72	=72	=72	=72	=72	=72	=72	=72	=72	=72	=72	=72	=72	=72	=72
16B\LL	n	8dd\L	.	8ff#\L	.	16B\LL	-re-	16B\LL	-re-	4f#\	-re-	16dd\LL	-re-	4dd\	4ff#\
16A#X\	6	.	.	.	.	16A#X\	.	16c#\	.	.	.	16cc#\	.	.	.
16B\	.	8cc#\J	.	8ff#\J	.	16B\	.	16B\	.	.	.	16dd\	.	.	.
16A#X\JJ	.	.	.	.	.	16A#\JJ	.	16c#\JJ	.	.	.	16cc#\JJ	.	.	.
16B\LL	.	16r	.	16r	.	16B\LL	.	16B\LL	.	8f#,<\	-bit,	16dd\LL	.	8r	8r
16A#X\	.	16cc#\LL	.	16ff#\LL	.	16A#X\	.	16c#\	.	.	.	16cc#\	.	.	.
16B\	.	16cc#\	.	16ff#\	.	16B\	.	16B\	.	8f#\	flo-	16dd\	.	8f#/	8f#/
16A#X\JJ	.	16cc#\JJ	.	16ff#\JJ	.	16A#\JJ	.	16c#\JJ	.	.	.	16cc#\JJ	.	.	.
8B\L	.	16dd\LL	.	16bb\LL	.	8B\	.	8B\	.	8f#\	-re-	8dd\	.	8f#/L	8f#/L
.	.	16cc#\	.	16aa#X\	.	.	.	.	.	.	.	.	.	.	.
8F#\J	#	16dd\	.	16bb\	.	8F#\	-bit	8A#X/	-bit	8f#\	-bit	8cc#\	-bit	16f#/L	16f#/L
*	*	*	*	*	*	*	*	*	*	*	*Xij	*	*	*	*
.	.	16cc#\JJ	.	16aa#\JJ	.	.	.	.	.	.	.	.	.	16f#/JJ	16f#/JJ
*	*	*	*	*custos:bb	*	*	*	*	*	*	*	*	*	*	*
!	!	!	!	!LO:LB:g=original	!	!	!	!	!	!	!	!	!	!	!
8r	.	16dd\LL	.	16bb\LL	.	8r	.	8r	.	8r	.	8r	.	16f#/LL	16f#/LL
.	.	16cc#\	.	16aa#X\	.	.	.	.	.	.	.	.	.	16f#/	16f#/
8F#\	#	16dd\	.	16bb\	.	8F#\	flo-	8c#\	flo-	8f#\	flo-	8ff#\	flo-	16f#/	16f#/
.	.	16cc#\JJ	.	16aa#\JJ	.	.	.	.	.	.	.	.	.	16f#/JJ	16f#/JJ
!	!	!LO:LB:g=original	!	!	!	!	!	!	!	!	!	!LO:LB:g=original	!	!	!
=73	=73	=73	=73	=73	=73	=73	=73	=73	=73	=73	=73	=73	=73	=73	=73
16B\LL	n	8dd\L	.	8bb\L	.	16B\LL	-re-	16d\LL	-re-	16f#\LL	-re-	4ff#\	-re-	4f#/	4f#/
16A#X\	6	.	.	.	.	16A#X\	.	16c#\	.	16a#X\	.	.	.	.	.
16B\	.	8cc#\J	.	8ff#\J	.	16B\	.	16d\	.	16f#\	.	.	.	.	.
16A#X\JJ	.	.	.	.	.	16A#\JJ	.	16c#\JJ	.	16a#\JJ	.	.	.	.	.
16B\LL	.	16r	.	16r	.	16B\LL	.	16d\LL	.	16f#\LL	.	8ff#,<\	-bit	16r	16r
16A#X\	.	16cc#\LL	.	16ff#\LL	.	16A#X\	.	16c#\	.	16a#X\	.	.	.	16f#/LL	16f#/LL
*	*	*	*	*	*	*	*	*	*	*	*	*	*ij	*	*
16B\	.	16cc#\	.	16ff#\	.	16B\	.	16d\	.	16f#\	.	8ff#\	flo-	16f#/	16f#/
16A#X\JJ	.	16cc#\JJ	.	16ff#\JJ	.	16A#\JJ	.	16c#\JJ	.	16a#\JJ	.	.	.	16f#/JJ	16f#/JJ
8B\L	.	16dd\LL	.	16bb\LL	.	8B\	.	8d\	.	8f#\	.	8ff#\	-re-	16f#/LL	16f#/LL
.	.	16cc#\	.	16aa#X\	.	.	.	.	.	.	.	.	.	16f#/	16f#/
8F#\J	#	16dd\	.	16bb\	.	8F#\	-bit	8c#\	-bit	8a#X\	-bit	8f#/	-bit	16f#/	16f#/
*	*	*	*	*	*	*	*	*	*	*	*	*	*Xij	*	*
.	.	16cc#\JJ	.	16aa#\JJ	.	.	.	.	.	.	.	.	.	16f#/JJ	16f#/JJ
*custos:D	*	*	*	*	*	*	*	*	*	*	*	*	*	*custos:f	*
!LO:LB:g=original	!	!	!	!	!	!	!	!	!	!	!	!	!	!LO:LB:g=original	!
8r	.	16dd\LL	.	16bb\LL	.	8r	.	8r	.	8r	.	8r	.	16f#/LL	16f#/LL
.	.	16cc#\	.	16aa#X\	.	.	.	.	.	.	.	.	.	16f#/	16f#/
*	*	*	*	*	*	*	*	*	*ij	*	*	*	*	*	*
8D/	.	16dd\	.	16bb\	.	8D/	flo-	8d\	flo-	8f#\	flo-	8a\	flo-	16f#/	16f#/
.	.	16cc#\JJ	.	16aa#\JJ	.	.	.	.	.	.	.	.	.	16f#/JJ	16f#/JJ
=74	=74	=74	=74	=74	=74	=74	=74	=74	=74	=74	=74	=74	=74	=74	=74
16G\LL	.	8dd\L	.	8bb\L	.	16G\LL	-re-	4d\	-re-	16g\LL	-re-	16b\LL	-re-	4d/	4d/
16F#\	6	.	.	.	.	16F#\	.	.	.	16a\	.	16a\	.	.	.
16G\	.	8dd\J	.	8bb\J	.	16G\	.	.	.	16g\	.	16b\	.	.	.
16F#\JJ	.	.	.	.	.	16F#\JJ	.	.	.	16a\JJ	.	16a\JJ	.	.	.
16G\LL	.	16r	.	16r	.	16G\LL	.	8d,<\	-bit,	16g\LL	.	16b\LL	.	16r	16r
16F#\	.	16aa\LL	.	16dd\LL	.	16F#\	.	.	.	16a\	.	16a\	.	16d/LL	16d/LL
16G\	.	16aa\	.	16dd\	.	16G\	.	8d\	flo-	16g\	.	16b\	.	16d/	16d/
16F#\JJ	.	16aa\JJ	.	16dd\JJ	.	16F#\JJ	.	.	.	16a\JJ	.	16a\JJ	.	16d/JJ	16d/JJ
8G\L	.	16gg\LL	.	16bb\LL	.	8G\	.	8d\	-re-	8g\	.	8b\	.	16d/LL	16d/LL
.	.	16ff#\	.	16aa\	.	.	.	.	.	.	.	.	.	16d/	16d/
8D\J	.	16gg\	.	16bb\	.	8D/	-bit	8d\	-bit	8f#\	-bit	8a\	-bit	16d/	16d/
*	*	*	*	*	*	*	*	*	*Xij	*	*	*	*	*	*
.	.	16ff#\JJ	.	16aa\JJ	.	.	.	.	.	.	.	.	.	16d/JJ	16d/JJ
!	!	!	!	!	!	!	!	!LO:LB:g=original	!	!	!	!	!	!	!
8r	.	16gg\LL	.	16bb\LL	.	8r	.	8r	.	8r	.	8r	.	16d/LL	16d/LL
.	.	16ff#\	.	16aa\	.	.	.	.	.	.	.	.	.	16d/	16d/
*	*	*	*	*	*	*	*	*	*	*	*	*	*ij	*	*
8D\	.	16gg\	.	16bb\	.	8D/	flo-	8A/	flo-	8f#\	flo-	8dd\	flo-	16d/	16d/
.	.	16ff#\JJ	.	16aa\JJ	.	.	.	.	.	.	.	.	.	16d/JJ	16d/JJ
!	!	!	!	!	!	!LO:LB:g=original	!	!	!	!LO:LB:g=original	!	!	!	!	!LO:LB:g=original
=75	=75	=75	=75	=75	=75	=75	=75	=75	=75	=75	=75	=75	=75	=75	=75
16G\LL	.	8gg\L	.	8bb\L	.	16G\LL	-re-	16B\LL	-re-	16g\LL	-re-	4dd\	-re-	4d/	4d/
16F#\	.	.	.	.	.	16F#\	.	16A\	.	16a\	.	.	.	.	.
16G\	.	8dd\J	.	8aa\J	.	16G\	.	16B\	.	16g\	.	.	.	.	.
16F#\JJ	.	.	.	.	.	16F#\JJ	.	16A\JJ	.	16a\JJ	.	.	.	.	.
16G\LL	.	16r	.	16r	.	16G\LL	.	16B\LL	.	16g\LL	.	8dd,<\	-bit,	8r	8r
16F#\	.	16dd\LL	.	16aa\LL	.	16F#\	.	16A\	.	16a\	.	.	.	.	.
16G\	.	16dd\	.	16aa\	.	16G\	.	16B\	.	16g\	.	8a\	flo-	8d/	8d/
16F#\JJ	.	16dd\JJ	.	16aa\JJ	.	16F#\JJ	.	16A\JJ	.	16a\JJ	.	.	.	.	.
8G\L	.	16gg\LL	.	16bb\LL	.	8G\	.	8B\	.	8g\	.	8dd\	-re-	8d/L	8d/L
.	.	16ff#\	.	16aa\	.	.	.	.	.	.	.	.	.	.	.
8D\J	.	16gg\	.	16bb\	.	8D/	-bit	8A/	-bit	16f#,<\	-bit,	16dd,<\	-bit,	16d/L	16d/L
*	*	*	*	*	*	*	*	*	*	*	*	*	*Xij	*	*
.	.	16ff#\JJ	.	16aa\JJ	.	.	.	.	.	16f#\	Ju-	16a\	Ju-	16d/JJ	16d/JJ
8r	.	16gg\LL	.	16bb\LL	.	8r	.	8r	.	8e\	-ſtus	8cc#\	-stus	16d/LL	16d/LL
.	.	16ff#\	.	16aa\	.	.	.	.	.	.	.	.	.	16d/	16d/
8A\	.	16gg\	.	16bb\	.	8A\	Ju-	8c#\	Ju-	8a\	ut	8ee\	ut	16d/	16d/
!	!	!LO:TX:a:t=e	!	!	!	!	!	!	!	!	!	!	!	!	!
.	.	16ee\JJ	.	16aa\JJ	.	.	.	.	.	.	.	.	.	16d/JJ	16d/JJ
=76	=76	=76	=76	=76	=76	=76	=76	=76	=76	=76	=76	=76	=76	=76	=76
8d\L	.	16ff#\LL	.	16aa\LL	.	8d\	-ſtus	8d\	-ſtus	4a\	pal-	(8ff#\L	pal-	4d/	4d/
.	.	16ff#\	.	16aa\	.	.	.	.	.	.	.	.	.	.	.
8c#\	6	16ee\	.	16aa\	.	8c#\	ut	8A/	ut	.	.	16ee\L	.	.	.
.	.	16ee\JJ	.	16aa\JJ	.	.	.	.	.	.	.	16ff#\JJ)	.	.	.
8B\	6	16dd\LL	.	16gg\LL	.	(8B\L	pal-	(8B\L	pal-	8g\	-ma	8dd\	-ma	8r	8r
.	.	16ee\	.	16aa\	.	.	.	.	.	.	.	.	.	.	.
8A\J	.	16ee\	.	16aa\	.	8A\J)	.	8c#\J)	.	8a\	flo-	8cc#\	.	8a/	16ee\LL
.	.	16ff#\JJ	.	16aa\JJ	.	.	.	.	.	.	.	.	.	.	16ff#\JJ
8G\L	.	16gg\LL	.	16dd\LL	.	8G,<\	-ma,	8B,<\	-ma,	8d\L	-re-	16dd\LL	flo-	8dd\L	8gg\L
.	.	16dd\	.	16aa\	.	.	.	.	.	.	.	16ee\	.	.	.
8F#\	6	16dd\	.	16aa\	.	8F#\	flo-	8A/	flo-	8a\J	.	16dd\	.	8ff#\J	8aa\J
.	.	16dd\JJ	.	16aa\JJ	.	.	.	.	.	.	.	16ee\JJ	.	.	.
*	*	*custos:ee	*	*custos:gg	*	*	*	*	*	*	*	*	*	*	*
!	!	!LO:LB:g=original	!	!LO:LB:g=original	!	!	!	!	!	!	!	!	!	!	!
8E\	6	16ee\LL	.	16gg\LL	.	(8E\L	-re-	(8c#\L	-re-	8g\L	.	8cc#\L	-re-	16ee\LL	16gg\LL
.	.	16cc#\	.	16gg\	.	.	.	.	.	.	.	.	.	16ff#\	16aa\
8D\J	.	16b\	.	16ff#\	.	8D\J)	.	8A\J)	.	16f#\L	.	8dd\J	.	16gg\	16bb\
.	.	16dd\JJ	.	16gg\JJ	.	.	.	.	.	16g\JJ	.	.	.	16ff#\JJ	16aa\JJ
!	!	!	!	!	!	!	!	!	!	!	!	!LO:LB:g=original	!	!	!
=77	=77	=77	=77	=77	=77	=77	=77	=77	=77	=77	=77	=77	=77	=77	=77
!LO:TX:a:t=P:problem=mixed beam	!	!	!	!	!	!	!	!	!	!	!	!	!	!LO:TX:a:t=P:problem=mixed beam	!
8A\L	.	16cc#\LL	.	16aa\LL	.	8A,<\	-bit,	8c#,<\	-bit,	8a,<\	-bit,	8ee,<\	-bit,	8ee\L	8aa\L
.	.	16aa\	.	16ee\	.	.	.	.	.	.	.	.	.	.	.
8AA/	.	16aa\	.	16ee\	.	8AA/	Ju-	8e\	Ju-	(16e\LL	ju-	(16cc#\LL	Ju-	16a/L	16ee\L
.	.	16cc#\JJ	.	16aa\JJ	.	.	.	.	.	16f#\JJ)	.	16dd\JJ)	.	16a/JJ	16ee\JJ
*	*	*	*	*	*	*	*	*	*	*	*	*	*	*custos:a	*
!	!	!	!	!	!	!	!	!	!	!	!	!	!	!LO:LB:g=original	!
8C#/	6	16cc#\LL	.	16ee\LL	.	8C#/	-ſtus	8e\	-ſtus	(16e\LL	-ſtus	(16cc#\LL	-ſtus	8a/L	8ee\L
.	.	16ee\	.	16aa\	.	.	.	.	.	16f#\JJ)	.	16dd\JJ)	.	.	.
8AA/J	.	16ee\	.	16aa\	.	8AA/	ut	8c#\	ut	(16e\LL	ut	(16cc#\LL	.	8ee\J	8aa\J
.	.	16ee\JJ	.	16aa\JJ	.	.	.	.	.	16f#\JJ)	.	16dd\JJ)	ut	.	.
8BB/L	6	16dd\LL	.	16gg\LL	.	8BB/L	pal-	(8B\L	pal-	(8g\L	pal-	(8dd\L	pal-	8dd\L	8gg\L
.	.	16dd\	.	16gg\	.	.	.	.	.	.	.	.	.	.	.
8AA/	6	16ff#\	.	16ff#\	.	8AA/J	.	8c#\J)	.	8f#\J)	.	8cc#\J)	.	8a\	8ff#\J
.	.	16ff#\JJ	.	16ff#\JJ	.	.	.	.	.	.	.	.	.	.	.
8BB/	6	16dd\LL	.	16gg\LL	.	8BB,</	-ma,	8B\	-ma	8g,<\	-ma,	8dd,<\	-ma,	8dd\	8gg\L
.	.	16dd\	.	16gg\	.	.	.	.	.	.	.	.	.	.	.
8C#/J	6	16ee\	.	16aa\	.	8C#/	ut	8A/	ut	8a\	ut	8ee\	ut	8ee\J	16aa\L
.	.	16ee\JJ	.	16aa\JJ	.	.	.	.	.	.	.	.	.	.	16gg\JJ
!	!	!	!	!	!	!	!	!LO:LB:g=original	!	!	!	!	!	!	!
=78	=78	=78	=78	=78	=78	=78	=78	=78	=78	=78	=78	=78	=78	=78	=78
!	!	!	!	!	!	!	!	!LO:TX:a:t=P:problem=mixed beam	!	!	!	!	!	!LO:TX:a:t=P:problem=mixed beam	!
8D\L	.	16ff#\LL	.	16aa\LL	.	(8D\L	pal-	8d\L	pal-	(8a\L	pal-	(8dd\L	pal-	8dd\L	8ff#\L
.	.	16ee\	.	16gg\	.	.	.	.	.	.	.	.	.	.	.
8E\	6	16ee\	.	16gg\	.	8E\J)	.	8G/J	.	8g\J)	.	8cc#\J)	.	16a/L	8ee\J
.	.	16ee\JJ	.	16gg\JJ	.	.	.	.	.	.	.	.	.	16a/JJ	.
*	*	*	*	*	*	*	*	*	*	*custos:a	*	*	*	*	*
!	!	!	!	!	!	!	!	!	!	!LO:LB:g=original	!	!	!	!LO:TX:a:t=P:problem=mixed beam	!
8F#\	6	16dd\LL	.	16aa\LL	.	8F#\	-ma	8d,<\	-ma,	8a,<\	-ma,	8dd,<\	-ma	8a/L	8dd\L
.	.	16dd\	.	16aa\	.	.	.	.	.	.	.	.	.	.	.
8G\J	6	16ee\	.	16gg\	.	8G\	flo-	8B\	flo-	(16g\LL	flo-	8ee\	flo-	16ee\L	16gg\L
.	.	16dd\JJ	.	16ff#\JJ	.	.	.	.	.	16f#\JJ)	.	.	.	16dd\JJ	16ff#\JJ
*	*	*	*	*	*	*custos:A	*	*	*	*	*	*	*	*	*
!	!	!	!	!	!	!LO:LB:g=original	!	!	!	!	!	!	!	!	!
8A\L	.	16cc#\LL	.	16ee\LL	.	8A\L	-re-	8c#\	-re-	8e\	-re-	8ee\	-re-	16a/LL	16ee\LL
.	.	16ff#\	.	16aa\	.	.	.	.	.	.	.	.	.	16a/	16ff#\
8F#\	6	16ff#\	.	16aa\	.	8F#\	.	16d,<\	-bit,	16f#,<\	-bit,	16ff#,<\	-bit,	16f#/	16dd\
*	*	*	*	*	*	*	*	*	*	*	*ij	*	*	*	*
.	.	16ff#\JJ	.	16aa\JJ	.	.	.	16A/	flo-	16f#\	flo-	16dd\	flo-	16a/JJ	16ee\JJ
8G\	6 5	16ee\LL	.	16aa\LL	.	8G\	.	4A/	-re-	4e\	-re-	(8dd\L	-re-	16d/LL	8.eeT\L
.	.	16ee\	.	16aa\	.	.	.	.	.	.	.	.	.	16a/	.
8A\J	.	16ee\	.	16aa\	.	8A\J	.	.	.	.	.	8cc#\J)	.	16dd/	.
.	.	16ee\JJ	.	16aa\JJ	.	.	.	.	.	.	.	.	.	16a/JJ	16dd\Jk
!	!	!	!	!	!	!	!	!	!	!	!	!	!	!	!LO:LB:g=original
=79	=79	=79	=79	=79	=79	=79	=79	=79	=79	=79	=79	=79	=79	=79	=79
8D/	.	8ff#,<\	.	8aa\	.	8D/	-bit.	8A/	-bit	8f#,<\	-bit,	8dd\	-bit	8f#/	8dd\
*clefC3	*	*	*	*	*	*	*	*	*	*	*Xij	*	*	*	*
*k[f#c#]	*	*	*	*	*	*	*	*	*	*	*	*	*	*	*
!LO:TX:a:t=P:problem=krzyżyki jeden nad drugim	!	!	!	!	!	!	!	!	!	!	!	!	!	!	!
!LO:TX:a:B:t=Allegro	!	!LO:TX:a:B:t=Allegro.	!	!LO:TX:a:B:t=Allegro	!	!LO:TX:a:B:t=Allegro	!	!LO:TX:a:B:t=Allegro	!	!LO:TX:a:B:t=Allegro.	!	!LO:TX:a:B:t=Allegro	!	!LO:TX:a:B:t=Allegro	!LO:TX:a:B:t=Allegro.
4d\|	.	4d/	.	8r	.	8r	.	8r	.	4d\	Si-	8r	.	8r	8r
.	.	.	.	4r	.	4r	.	4r	.	.	.	4r	.	4r	4r
8d\|	.	8d/	.	.	.	.	.	.	.	8d\	-cut	.	.	.	.
*custos:e	*	*	*	*	*	*	*	*	*	*	*	*	*	*	*
!LO:LB:g=original	!	!	!	!	!	!	!	!	!	!	!	!	!	!	!
4e\|	.	4e/	.	2r	.	2r	.	2r	.	4e\	Ce-	2r	.	2r	2r
4A/|	.	4A/	.	.	.	.	.	.	.	4A/	-drus	.	.	.	.
=80	=80	=80	=80	=80	=80	=80	=80	=80	=80	=80	=80	=80	=80	=80	=80
!	!	!	!	!	!	!	!	!	!	!	!	!	!	!	!LO:TX:b:t=5
4.g\|	.	4.g/	.	2r	.	0r	.	00r	.	4.g\	Li-	2r	.	00r	00r
8g\|	.	8g/	.	.	.	.	.	.	.	8g\	-ba-	.	.	.	.
*clefC1	*	*	*	*	*	*	*	*	*	*	*	*	*	*	*
*k[f#c#]	*	*	*	*	*	*	*	*	*	*	*	*	*	*	*
*^	*	*	*	*	*	*	*	*	*	*	*	*	*	*	*
!LO:TX:a:t=P:problem=krzyżyki jeden nad drugim	!	!	!	!	!	!	!	!	!	!	!	!	!	!	!	!
4.a/	4f#\	.	4f#/	.	4.a/	.	.	.	.	.	4f#,<\	-ni,	4.a\	Sic-	.	.
.	[4a\	.	[4a/	.	.	.	.	.	.	.	[4a\	mul-	.	.	.	.
8a/	.	.	.	.	8a/	.	.	.	.	.	.	.	8a\	-ut	.	.
=81	=81	=81	=81	=81	=81	=81	=81	=81	=81	=81	=81	=81	=81	=81	=81	=81
4b/	4a\]	.	4a/]	.	4b/	.	.	.	.	.	4a\]	.	4b\	Ce-	.	.
4g/	4e\	.	4g/	.	4e/	.	.	.	.	.	4g\	-ti-	4e/	-drus	.	.
*	*	*	*custos:f	*	*	*	*	*	*	*	*	*	*	*	*	*
!	!	!	!LO:LB:g=original	!	!	!	!	!	!	!	!	!	!	!	!	!
4.dd/	4.f#\	.	4.f#/	.	4.dd\	.	.	.	.	.	(4.f#\	-pli-	4.dd\	Li-	.	.
8dd/	8g#X\	.	8g#X/	.	8dd\	.	.	.	.	.	8g#X\)	.	8dd\	-ba-	.	.
!	!	!	!	!	!	!	!	!	!	!	!	!	!LO:LB:g=original	!	!	!
=82	=82	=82	=82	=82	=82	=82	=82	=82	=82	=82	=82	=82	=82	=82	=82	=82
4cc#/	4.a\	.	4.a/	.	4cc#\	.	2r	.	.	.	4.a\	-ca-	4cc#,<\	-ni,	.	.
*	*	*	*	*	*2\right	*	*	*	*	*	*	*	*	*	*	*
4ee/	.	.	.	.	2ee\	.	.	.	.	.	.	.	2ee\	mul-	.	.
.	8gn\	.	8g/	.	.	.	.	.	.	.	8g\	.	.	.	.	.
*clefF4	*	*	*	*	*	*	*	*	*	*	*	*	*	*	*	*
*k[f#c#]	*	*	*	*	*	*	*	*	*	*	*	*	*	*	*	*
!LO:TX:a:t=P:problem=krzyżyki jeden nad drugim	!	!	!	!	!	!	!	!	!	!	!	!	!	!	!	!
4.D/	2ryy	9	8f#/L	.	.	.	4.D/	Si-	.	.	8f#\L	.	.	.	.	.
.	.	8	8g/	.	.	.	.	.	.	.	8g\	.	.	.	.	.
.	.	.	8a/	.	[4dd\	.	.	.	.	.	8a\	.	[4dd\	-ti-	.	.
8D/	.	.	8f#/J	.	.	.	8D/	-cut	.	.	8f#\J	.	.	.	.	.
*v	*v	*	*	*	*	*	*	*	*	*	*	*	*	*	*	*
!	!	!	!	!LO:LB:g=original	!	!	!	!	!	!	!	!	!	!	!
=83	=83	=83	=83	=83	=83	=83	=83	=83	=83	=83	=83	=83	=83	=83	=83
4E\	7	4g/	.	4dd\]	.	4E\	Ce-	.	.	4g\	.	4dd\]	.	.	.
4AA/	.	4a/	.	4cc#\	.	4AA/	-drus	.	.	4a\	-bi-	4cc#\	-pli-	.	.
*	*	*	*	*	*	*	*	*	*	*custos:d	*	*	*	*	*
!	!	!	!	!	!	!	!	!	!	!LO:LB:g=original	!	!	!	!	!
*	*	*	*	*	*	*	*	*	*	*2\right	*	*	*	*	*
4.G\	3	2d/	.	4.b/	.	4.G\	li-	.	.	2d\	-tur	4.b\	-ca-	.	.
8G\	.	.	.	8cc#\	.	8G\	-ba-	.	.	.	.	8cc#\	.	.	.
=84	=84	=84	=84	=84	=84	=84	=84	=84	=84	=84	=84	=84	=84	=84	=84
*^	*	*	*	*	*	*	*	*	*	*	*	*	*	*	*
2.ryy	4F#\	.	1r	.	8dd\L	.	4F#,<\	-ni,	4.A/	Si-	1r	.	8dd\L	.	1r	1r
.	.	.	.	.	8ee\	.	.	.	.	.	.	.	8ee\	.	.	.
*	*2\right	*	*	*	*	*	*2\right	*	*	*	*	*	*	*	*	*
.	2A\	.	.	.	8ff#\	.	2A\	mul-	.	.	.	.	8ff#\	.	.	.
.	.	.	.	.	8cc#\J	.	.	.	8A/	-cut	.	.	8cc#\J	.	.	.
.	.	4 2	.	.	4dd\	.	.	.	4B\	Ce-	.	.	4dd\	.	.	.
4E\	4G/	.	.	.	4ee\	.	4G\	-ti-	4E/	-drus	.	.	4ee\	-bi-	.	.
*v	*v	*	*	*	*	*	*	*	*	*	*	*	*	*	*	*
=85	=85	=85	=85	=85	=85	=85	=85	=85	=85	=85	=85	=85	=85	=85	=85
4.F#\	6	2r	.	2a/	.	(4.F#\	-pli-	4.d\	Li-	2r	.	2a\	-tur	2r	2r
8G#X\	.	.	.	.	.	8G#X\)	.	8d\	-ba-	.	.	.	.	.	.
4.A\	.	4r	.	2r	.	4.A\	-ca-	4c#,<\	-ni,	4r	.	2r	.	4r	4r
.	.	[4a/	.	.	.	.	.	[4e\	mul-	[4a\	mul-	.	.	4ee\	[<4aa\
8Gn\	.	.	.	.	.	8G#\	.	.	.	.	.	.	.	.	.
!LO:LB:g=original	!	!	!	!	!	!	!	!	!	!	!	!	!	!	!
=86	=86	=86	=86	=86	=86	=86	=86	=86	=86	=86	=86	=86	=86	=86	=86
2F#\	7	8a/L]	.	4.a/	.	8F#\L	.	4e\]	.	8a\L]	.	4.a\	Sic-	8ff#\L	8aa\L]
.	.	8g/	.	.	.	8G\	.	.	.	8g\J	.	.	.	8ee\J	8gg\J
.	6	8f#/	.	.	.	8A\	.	2d\	-tip-	8f#\	-ti-	.	.	4dd\	4ff#\
!	!	!LO:TX:a:t=P:problem=niewyraźny zapis	!	!	!	!	!	!	!	!	!	!	!	!	!
.	.	8e/J	.	8a/	.	8F#\J	.	.	.	8f#\	-pli-	8a\	-ut	.	.
*	*	*	*	*	*	*custos:G	*	*	*	*	*	*	*	*custos:dd	*
!	!	!	!	!	!	!LO:LB:g=original	!	!	!	!	!	!	!	!LO:LB:g=original	!
!	!	!	!	!	!	!	!	!	!	!	!	!	!	!LO:TX:a:t=P:problem=mixed beam	!
4G\	6 5	4.e/	.	4b/	.	4G\	.	.	.	4.e\	-ca-	4b\	ce-	8dd\L	4.ee\
.	.	.	.	.	.	.	.	.	.	.	.	.	.	8a/J	.
4A\	.	.	.	4e/	.	4A\	-bi-	4c#\	-li-	.	.	4e/	-drus	8a/L	.
.	.	8e/	.	.	.	.	.	.	.	8e\	-bi-	.	.	16a/L	8ee\
.	.	.	.	.	.	.	.	.	.	.	.	.	.	16a/JJ	.
!	!	!	!	!	!	!	!	!LO:LB:g=original	!	!	!	!	!	!	!
=87	=87	=87	=87	=87	=87	=87	=87	=87	=87	=87	=87	=87	=87	=87	=87
2D/	.	4f#/	.	4.dd\	.	2D/	-tur	4.A/	-ca-	4f#,<\	-tur,	4.dd\	Li-	4dd\	4ff#\
*	*	*	*	*	*	*	*	*	*	*	*	*	*	*	*2\right
.	.	2a/	.	.	.	.	.	.	.	2a\	mul-	.	.	4ff#\	2aa\
.	.	.	.	8dd\	.	.	.	8A/	-bi-	.	.	8dd\	-ba-	.	.
2A\	.	.	.	4cc#\	.	2r	.	2A/	-tur	.	.	4cc#,<\	-ni,	4.ee\	.
.	.	4g/	.	[4ee\	.	.	.	.	.	4g\	-ti-	[4ee\	mul	.	4gg\
.	.	.	.	.	.	.	.	.	.	.	.	.	.	8ee\	.
=88	=88	=88	=88	=88	=88	=88	=88	=88	=88	=88	=88	=88	=88	=88	=88
2d\	.	4.f#/	.	4ee\]	.	2r	.	4.d\	Sicut	(4.f#\	-pli-	4ee\]	.	4.dd\	4.ff#\
.	.	.	.	4dd\	.	.	.	.	.	.	.	4dd\	ti-	.	.
.	.	8g/	.	.	.	.	.	8d\	.	8g\)	.	.	.	8ee\	8gg\
2A\	.	4.a/	.	4cc#\	.	4.A\	Si-	4e\	Ce-	4.a\	-ca-	4cc#\	-pli-	4ee\	4.aa\
.	.	.	.	4cc#\	.	.	.	4A/	-drus	.	.	4cc#\	-ca-	8ee\L	.
.	.	8a/	.	.	.	8A\	-cut	.	.	8a\	-bi-	.	.	8ee\J	8aa\
=89	=89	=89	=89	=89	=89	=89	=89	=89	=89	=89	=89	=89	=89	=89	=89
4B\	6	2d/	.	4.b/	.	4B\	Ce-	4.g\	Li-	2d\	-tur	4.b\	.	4dd\	4gg\
4E\	5	.	.	.	.	4E\	-drus	.	.	.	.	.	.	4r	4r
.	6	.	.	8cc#\	.	.	.	8g\	-ba-	.	.	8cc#\	.	.	.
!	!	!	!	!	!	!	!	!	!	!	!	!LO:SIC: cudtos dd:v	!	!	!
!	!	!	!	!	!	!	!	!	!	!	!	!LO:LB:g=original	!	!	!
2d\	.	2r	.	8dd\L	.	4.d\	li-	4f#,<\	-ni,	2r	.	8dd\L	.	2r	2r
.	.	.	.	8ee\	.	.	.	.	.	.	.	8ee\	.	.	.
.	.	.	.	8ff#\	.	.	.	[<4a\	mul-	.	.	8ff#\	.	.	.
.	.	.	.	8dd\J	.	8d\	-ba-	.	.	.	.	8dd\J	.	.	.
!	!	!LO:LB:g=original	!	!	!	!	!	!	!	!	!	!	!	!	!
=90	=90	=90	=90	=90	=90	=90	=90	=90	=90	=90	=90	=90	=90	=90	=90
4c#\	.	4.e/	.	4.ee\	.	4c#,<\	-ni,	4a\]	.	4.e\	Sic-	4.ee\	.	0r	0r
2e\	.	.	.	.	.	(2e\	mul-	4g\	.	.	.	.	.	.	.
.	.	8e/	.	8ee\	.	.	.	.	.	8e\	-ut	8ee\	-bit-	.	.
.	4 2	4f#/	.	4a/	.	.	.	4f#\	-ti-	4f#\	Ce-	4a,<\	-ur,	.	.
4d\	6	4B/	.	4b/	.	4d\)	.	4f#\	-pli-	4B/	-drus	4b\	mul-	.	.
=91	=91	=91	=91	=91	=91	=91	=91	=91	=91	=91	=91	=91	=91	=91	=91
4.c#\	6	4.a/	.	4cc#\	.	4.c#\	-ti-	4.e\	-ca-	4.a\	li-	4cc#\	-ti-	.	.
.	.	.	.	4cc#\	.	.	.	.	.	.	.	4cc#\	-pli-	.	.
8d\	.	8a/	.	.	.	8d\	-pli-	8e\	-bi-	8a\	-ba	.	.	.	.
*	*	*	*	*	*	*	*	*	*	*custos:g	*	*	*	*	*
!	!	!	!	!	!	!	!	!	!	!LO:LB:g=original	!	!	!	!	!
4.e\	#	4g#X/	.	4.b\	.	4.e\	-ca-	2e\	-tur	4g#X,<\	ni,	4.b\	-ca-	.	.
.	.	[4b/	.	.	.	.	.	.	.	[4b\	mul-	.	.	.	.
8d\	.	.	.	16cc#\LL	.	8d\	.	.	.	.	.	16cc#\LL	.	.	.
.	.	.	.	16dd\JJ	.	.	.	.	.	.	.	16dd\JJ	.	.	.
!	!	!	!	!LO:LB:g=original	!	!	!	!	!	!	!	!	!	!	!
=92	=92	=92	=92	=92	=92	=92	=92	=92	=92	=92	=92	=92	=92	=92	=92
2c#\	7	8b/L]	.	2ee\	.	8c#\L	.	2r	.	8b\L]	.	2ee\	.	8r	8r
.	6	8a/	.	.	.	8d\	.	.	.	8a\J	.	.	.	8a/L	8a/L
.	.	8a/	.	.	.	8e\	.	.	.	8a\	-ti-	.	.	8a/	8a/
.	.	8a/J	.	.	.	8c#\J	.	.	.	8a\	-pli-	.	.	8a/J	8a/J
4d\	.	4a/	.	4.b/	.	4d\	.	4r	.	4a\	-ca-	4.b\	.	16a/LL	8a/L
.	.	.	.	.	.	.	.	.	.	.	.	.	.	16a/	.
.	.	.	.	.	.	.	.	.	.	.	.	.	.	16a/	16a/
.	.	.	.	.	.	.	.	.	.	.	.	.	.	16a/JJ	16a/Jk
4e\	#	4g#X/	.	.	.	4e\	-bi-	4e\	Ju-	4g#X\	-bi-	.	.	16a/LL	16a/LL
.	.	.	.	.	.	.	.	.	.	.	.	.	.	16a/	16a/
.	.	.	.	8b/	.	.	.	.	.	.	.	8b\	-bi-	16a/	16a/
.	.	.	.	.	.	.	.	.	.	.	.	.	.	16a/JJ	16a/JJ
!	!	!	!	!	!	!	!	!	!	!	!	!	!	!	!LO:LB:g=original
=93	=93	=93	=93	=93	=93	=93	=93	=93	=93	=93	=93	=93	=93	=93	=93
4A\	.	2a/	.	2cc#\	.	4A,<\	-tur,	4c#\	-ſtus	2a\	-tur	2cc#\	-tur	4a/	4a/
4A\	.	.	.	.	.	4A\	Ju-	(8B\L	ut	.	.	.	.	4r	4r
.	.	.	.	.	.	.	.	8A\J)	.	.	.	.	.	.	.
*	*	*	*	*	*	*custos:G	*	*	*	*	*	*	*	*	*
!	!	!	!	!	!	!LO:LB:g=original	!	!	!	!	!	!	!	!	!
4G#X\	6	2r	.	2r	.	4G#X\	-ſtus	4B\	pal-	2r	.	2r	.	2r	2r
8F#\L	.	.	.	.	.	(8F#\L	ut	[4e\	.	.	.	.	.	.	.
8E\J	.	.	.	.	.	8E\J)	.	.	.	.	.	.	.	.	.
!LO:LB:g=original	!	!	!	!	!	!	!	!LO:LB:g=original	!	!	!	!	!	!LO:LB:g=original	!
=94	=94	=94	=94	=94	=94	=94	=94	=94	=94	=94	=94	=94	=94	=94	=94
4F#\	7	0r	.	1r	.	(4F#\	pal-	4e\]	.	1r	.	1r	.	00r	00r
4B\	.	.	.	.	.	4B\)	.	2d,<\	-ma,	.	.	.	.	.	.
4E\	.	.	.	.	.	4E,<\	-ma,	.	.	.	.	.	.	.	.
[<4A\	.	.	.	.	.	[4A\	flo-	4c#\	flo-	.	.	.	.	.	.
=95	=95	=95	=95	=95	=95	=95	=95	=95	=95	=95	=95	=95	=95	=95	=95
4A\]	2	.	.	4r	.	4A\]	.	2B\	-re-	2r	.	4r	.	.	.
4G#X\	.	.	.	4ee\	.	4G#X\	-re-	.	.	.	.	4ee\	Ju-	.	.
2A\	.	.	.	4cc#\	.	2A\	-bit	2A/	-bit	4r	.	4cc#\	-ſtus	.	.
.	.	.	.	8b/L	.	.	.	.	.	4a\	Ju-	(8b\L	ut	.	.
.	.	.	.	8a/J	.	.	.	.	.	.	.	8a\J)	.	.	.
=96	=96	=96	=96	=96	=96	=96	=96	=96	=96	=96	=96	=96	=96	=96	=96
*clefC4	*	*	*	*	*	*	*	*	*	*	*	*	*	*	*
*k[f#c#]	*	*	*	*	*	*	*	*	*	*	*	*	*	*	*
!LO:TX:a:t=P:problem=krzyżyki jeden nad drugim	!	!	!	!	!	!	!	!	!	!	!	!	!	!	!
4e\	#	2r	.	4b\	.	1r	.	4e\	flo-	4g#X\	-ſtus	4b\	pal-	.	.
8d\L	.	.	.	2ee\	.	.	.	8d\L	.	(8f#\L	ut	2ee\	.	.	.
8c#\J	.	.	.	.	.	.	.	8c#\J	.	8e\J)	.	.	.	.	.
8B\L	4	4r	.	.	.	.	.	8B\L	.	4f#\	pal-	.	.	.	.
8c#\	.	.	.	.	.	.	.	8c#\	.	.	.	.	.	.	.
8d\	6	4a/	.	4dd\	.	.	.	8d\	.	[4b\	.	4dd\	.	.	.
!	!	!	!	!LO:TX:a:t=P:problem=trzy wykreślone takty	!	!	!	!	!	!	!	!	!	!	!
8e\J	.	.	.	.	.	.	.	8e\J	.	.	.	.	.	.	.
=97	=97	=97	=97	=97	=97	=97	=97	=97	=97	=97	=97	=97	=97	=97	=97
4f#\	5 4	4g#X/	.	4cc#\	.	4r	.	4.f#\	-re-	4b\]	.	4cc#\	.	.	.
*clefF4	*	*	*	*	*	*	*	*	*	*	*	*	*	*	*
*k[f#c#]	*	*	*	*	*	*	*	*	*	*	*	*	*	*	*
!LO:TX:a:t=P:problem=krzyżyki jeden nad drugim	!	!	!	!	!	!	!	!	!	!	!	!	!	!	!
4D/	.	8f#/L	.	2ff#\	.	4D/	Ju-	.	.	4a\	.	2ff#\	.	.	.
.	.	8e/J	.	.	.	.	.	8e,<\	-bit,	.	.	.	.	.	.
*	*	*	*	*	*	*	*	*	*ij	*	*	*	*	*	*
4BB/	6 5	4f#/	.	.	.	4BB/	-ſtus	4d\	flo-	2g\	.	.	.	.	.
4C#/	6 5	[4b/	.	[4ee\	.	4C#/	ut	4e\	-re-	.	.	[4ee\	.	.	.
!	!	!	!	!	!	!	!	!	!	!	!	!LO:PB:g=original	!	!	!
=98	=98	=98	=98	=98	=98	=98	=98	=98	=98	=98	=98	=98	=98	=98	=98
4D/	7	4b/]	.	4ee\]	.	4D\	pal-	2A/	-bit	4f#,<\	-ma	4ee\]	.	1r	1r
*	*	*	*	*	*	*	*	*	*Xij	*	*	*	*	*	*
4F#\	6	4a/	.	4dd\	.	8F#,<\	-ma,	.	.	4f#\	flo-	4dd\	-ma	.	.
.	.	.	.	.	.	8F#\	flo-	.	.	.	.	.	.	.	.
4G\	6 5	2g/	.	4dd\	.	(4G\	-re-	4r	.	2e\	-re-	4dd\	flo-	.	.
!	!	!	!	!	!	!	!	!	!	!	!	!	!LO:MO:mod=re	!	!
4A\	.	.	.	4cc#\	.	4A\)	.	4A/	Ju-	.	.	4cc#\	-ri-	.	.
=99	=99	=99	=99	=99	=99	=99	=99	=99	=99	=99	=99	=99	=99	=99	=99
4D/	.	4f#/	.	2dd\	.	4D,</	-bit	4F#/	-st(us)	2f#\	-bit	2dd\	-bit	4r	4r
4D/	.	4f#/	.	.	.	4D/	Ju-	(8E/L	ut-	.	.	.	.	4dd\	4ff#\
.	.	.	.	.	.	.	.	8D/J)	.	.	.	.	.	.	.
4C#/	.	2e/	.	2r	.	4C#/	-ſtus	4E/	-pal-	2r	.	2r	.	4a/	4ee\
8BB/L	.	.	.	.	.	(8BB/L	ut-	[4A/	.	.	.	.	.	8f#/L	8dd\L
8AA/J	.	.	.	.	.	8AA/J)	.	.	.	.	.	.	.	8a/J	8ee\J
!	!	!LO:LB:g=original	!	!	!	!LO:LB:g=original	!	!	!	!LO:LB:g=original	!	!	!	!	!
=100	=100	=100	=100	=100	=100	=100	=100	=100	=100	=100	=100	=100	=100	=100	=100
4BB/	7	2f#/	.	1r	.	(4BB/	-pal-	4A/]	.	1r	.	1r	.	4f#/	4dd\
4E\	.	.	.	.	.	4E\)	.	2G,</	-ma	.	.	.	.	4r	2ee\
4AA/	7	2ra	.	.	.	4AA,</	-ma,	.	.	.	.	.	.	4a/	.
!	!	!	!	!	!	!	!	!	!	!	!	!	!	!LO:TX:a:t=P:problem=mixed beam	!
[>4D/	.	.	.	.	.	[4D/	flo-	4F#/	flo-	.	.	.	.	8a/L	4ff#\
.	.	.	.	.	.	.	.	.	.	.	.	.	.	8dd\J	.
=101	=101	=101	=101	=101	=101	=101	=101	=101	=101	=101-	=101	=101	=101	=101	=101
4D/]	2	2ra	.	4r	.	4D/]	.	2E/	-re-	2r	.	4r	.	4.ee\	4gg\
4C#/	.	.	.	4a/	.	4C#/	-re-	.	.	.	.	4a\	Ju-	.	4aa\
.	.	.	.	.	.	.	.	.	.	.	.	.	.	8ee\	.
2D/	.	4r	.	4f#/	.	2D/	-bit	2D/	-bit	4r	.	4f#/	-ſtus	4dd\	4ff#\
.	.	4d/	.	8e/L	.	.	.	.	.	4d\	ju-	(8e/L	ut	8a/L	8ee\L
.	.	.	.	8d/J	.	.	.	.	.	.	.	8d/J)	.	8f#/J	8dd\J
!LO:LB:g=original	!	!	!	!	!	!	!	!LO:LB:g=original	!	!	!	!	!	!	!
=102	=102	=102	=102	=102	=102	=102	=102	=102	=102	=102	=102	=102	=102	=102	=102
4AA/	.	4c#/	.	4.e/	.	4r	.	1r	.	4c#\	-ſtus	4.e/	pal-	4a/	4.ee\
4A\	5	8B/L	.	.	.	4A\	Ju-	.	.	(8B/L	ut	.	.	8a/L	.
.	6	8A/J	.	8f#/	.	.	.	.	.	8A/J)	.	8f#/	.	8a/J	8ff#\
4G\	.	4B/	.	2g/	.	4G\	-ſtus	.	.	4B/	pal-	2g/	.	4a/	4.gg\
8F#\L	.	[4e/	.	.	.	(8F#\L	ut-	.	.	[4e\	.	.	.	[4ee\	.
8E\J	.	.	.	.	.	8E\J)	.	.	.	.	.	.	.	.	8gg\
=103	=103	=103	=103	=103	=103	=103	=103	=103	=103	=103	=103	=103	=103	=103	=103
4B\	4	4e/]	.	4f#/	.	4B\	-pal-	4r	.	4e\]	.	4f#,</	-ma,	4ee\]	4ff#\
4D/	6	4d/	.	2b/	.	4D/	-ma	4f#\	Ju-	4d,<\	-ma	2b\	flo-	4dd\	4bb\
4E\	6 5	4c#/	.	.	.	4E\	flo-	4e\	-ſtus	4c#/	flo-	.	.	2r	2r
4F#\	#	4f#/	.	4a#X/	.	4F#\	-re-	(8d\L	ut	4f#\	-re-	4a#X\	-re-	.	.
.	.	.	.	.	.	.	.	8c#\J)	.	.	.	.	.	.	.
!	!	!	!	!LO:LB:g=original	!	!	!	!	!	!	!	!	!	!	!
=104	=104	=104	=104	=104	=104	=104	=104	=104	=104	=104	=104	=104	=104	=104	=104
!	!	!	!	!	!	!	!	!	!	!	!	!	!	!	!LO:TX:a:t=1
4BB/	.	2f#/	.	2b/	.	4BB,</	-bit,	4d\	pal-	2f#\	-bit	2b\	-bit	1r	1r
4BB/	6	.	.	.	.	4BB/	flo-	2g\	.	.	.	.	.	.	.
4C#/	6 5	2r	.	4r	.	4C#/	-re-	.	.	2r	.	4r	.	.	.
4D/	.	.	.	4dd\	.	4D/	.	4f#\	.	.	.	4dd\	ju-	.	.
!	!	!	!	!	!	!	!	!	!	!	!	!	!	!LO:LB:g=original	!
=105	=105	=105	=105	=105	=105	=105	=105	=105	=105	=105	=105	=105	=105	=105	=105
[>1AA	5 3	4r	.	4cc#\	.	[>1AA	.	2e\	.	4r	.	4cc#\	-ſtus	4r	4r
.	.	4a/	.	8b/L	.	.	.	.	.	4a\	flo-	(8b\L	ut	4ee\	4aa\
.	.	.	.	8a/J	.	.	.	.	.	.	.	8a\J)	.	.	.
.	6 4	4f#/	.	2a/	.	.	.	4d,<\	-ma	4f#\	-re-	2a\	pal-	4dd\	4ff#\
.	.	8e/L	.	.	.	.	.	4d\	flo-	8e\L	.	.	.	8a/L	8ee\L
.	.	8d/J	.	.	.	.	.	.	.	8d\J	.	.	.	8f#/J	8dd\J
!	!	!	!	!	!	!LO:LB:g=original	!	!	!	!	!	!LO:LB:g=original	!	!	!LO:LB:g=original
=106	=106	=106	=106	=106	=106	=106	=106	=106	=106	=106	=106	=106	=106	=106	=106
2AA/_	8 5 3	4e/	.	4a/	.	1AA_>	.	(4c#\	-re-	4e\	.	4a,<\	-ma,	4a/	4ee\
.	.	2a/	.	4ee\	.	.	.	8B\L	.	2a\	.	4ee\	flo-	4ee\	2aa\
.	.	.	.	.	.	.	.	8A\J)	.	.	.	.	.	.	.
2AA/_	8 4 2	.	.	4dd\	.	.	.	4B,<\	-bit,	.	.	(4dd\	-re-	4ff#\	.
.	7 5 2	[4g/	.	8cc#\L	.	.	.	4e\	flo-	[4g\	.	8cc#\L	.	[4ee\	[4gg\
.	.	.	.	8b\J	.	.	.	.	.	.	.	8b\J)	.	.	.
=107	=107	=107	=107	=107	=107	=107	=107	=107	=107	=107	=107	=107	=107	=107	=107
2AA/_	7 5 3	4g/]	.	4cc#\	.	1AA]	.	4A/	-re-	4g\]	.	4cc#,<\	-bit,	4ee\]	4gg\]
.	6 4	4f#/	.	4a/	.	.	.	2d\	.	4f#\	.	4a\	flo-	4dd\	4ff#\
2AA/]	5 4	2e/	.	2a/	.	.	.	.	.	2e\	.	2a\	-re-	8a/L	8ee\L
.	.	.	.	.	.	.	.	.	.	.	.	.	.	16a/L	16ee\L
.	.	.	.	.	.	.	.	.	.	.	.	.	.	16a/JJ	16ee\JJ
.	x 3	.	.	.	.	.	.	4c#\	.	.	.	.	.	8a/L	8ee\L
.	.	.	.	.	.	.	.	.	.	.	.	.	.	8a/J	8ee\J
=108	=108	=108	=108	=108	=108	=108	=108	=108	=108	=108	=108	=108	=108	=108	=108
!	!	!LO:TX:a:t=P:problem=mixed beam	!	!LO:TX:a:t=P:problem=mixed beam	!	!	!	!	!	!	!	!	!	!	!
8D\L	.	16f#/LL	.	16a/LL	.	8D,<\	-bit,	8d,<\	-bit,	8f#,<\	-bit,	8a,<\	-bit,	8dd\L	8ff#\L
.	.	16ff#\	.	16aa\	.	.	.	.	.	.	.	.	.	.	.
8F#\	6	16ff#\	.	16aa\	.	8F#\L	A-	8A\L	A-	8a\L	A-	8dd\L	A-	8dd\	8aa\
.	.	16ff#\JJ	.	16aa\JJ	.	.	.	.	.	.	.	.	.	.	.
*	*	*custos:ee	*	*	*	*	*	*	*	*	*	*	*	*	*
!	!	!LO:LB:g=original	!	!	!	!	!	!	!	!	!	!	!	!	!
8G\	6	16ee\LL	.	16gg\LL	.	8G\	.	8B\	.	8g\	.	8b\	.	8ee\	8gg\
.	.	16ee\	.	16gg\	.	.	.	.	.	.	.	.	.	.	.
8A\J	6	16cc#\	.	16ff#\	.	8A\J	.	8A\J	.	8f#\J	.	8cc#\J	.	8dd\J	8ff#\J
.	.	16cc#\JJ	.	16ff#\JJ	.	.	.	.	.	.	.	.	.	.	.
*	*	*	*	*	*	*	*	*	*	*custos:g	*	*	*	*	*
!	!	!	!	!	!	!	!	!LO:TX:a:t=P:problem=mixed beam	!	!LO:LB:g=original	!	!	!	!	!
8B\L	6	16dd\LL	.	16gg\LL	.	8B\L	.	8G/L	.	8g\L	.	16dd\LL	.	16dd\LL	8gg\L
.	.	16ff#\	.	16aa\	.	.	.	.	.	.	.	16ee\	.	16ee\	.
8A\	6	16dd\	.	16gg\	.	8A\	.	8c#\	.	8f#\J	.	16ff#\	.	16ff#\	8ff#\J
.	.	16cc#\JJ	.	16ff#\JJ	.	.	.	.	.	.	.	16ee\JJ	.	16ee\JJ	.
8B\	6	16b\LL	.	16gg\LL	.	8B\	.	8d\	.	8g\L	.	8dd\L	.	8dd\L	8gg\L
.	.	16dd\	.	16dd\	.	.	.	.	.	.	.	.	.	.	.
8c#\J	6	16ff#\	.	16aa\	.	8c#\J	.	8e\J	.	16a\L	.	16cc#\L	.	8ee\J	16aa\L
.	.	16ee\JJ	.	16gg\JJ	.	.	.	.	.	16g\JJ	.	16b\JJ	.	.	16gg\JJ
!	!	!	!	!	!	!	!	!LO:LB:g=original	!	!	!	!	!	!	!
=109	=109	=109	=109	=109	=109	=109	=109	=109	=109	=109	=109	=109	=109	=109	=109
8d\L	.	16ff#\LL	.	16ff#\LL	.	8d\	.	8d\	.	8f#\	.	8a\	.	8dd\L	8ff#\L
.	.	16dd\	.	16aa\	.	.	.	.	.	.	.	.	.	.	.
8F#\	6	16dd\	.	16aa\	.	8F#,<\	-men,	8A,</	-men	8a,<\	-men,	8dd,<\	-men,	8ff#\J	8aa\J
.	.	16dd\JJ	.	16aa\JJ	.	.	.	.	.	.	.	.	.	.	.
!	!	!	!	!	!	!	!	!	!	!	!	!	!	!LO:TX:a:t=P:problem=mixed beam	!
8G\	6 5	16gg\LL	.	16ee\LL	.	8G\L	a-	(8B\L	a-	(8g\L	a-	(8ee\L	a-	16ee\LL	16gg\LL
.	.	16gg\	.	16aa\	.	.	.	.	.	.	.	.	.	16a/	16gg\
8A\J	.	16ff#\	.	16aa\	.	8A\J	.	8A\J)	.	16f#\L	.	16dd\L	.	16a/	16ff#\
.	.	16ee\JJ	.	16aa\JJ	.	.	.	.	.	16e\JJ)	.	16cc#\JJ)	.	16a/JJ	16ee\JJ
4D/	.	4ff#\	.	4aa\	.	4D/	-men.	4A/	-men	4f#\	-men.	4dd\	-men.	4f#/	4dd\
4r	.	4r	.	4r	.	4r	.	4r	.	4r	.	4r	.	4r	4r
==	==	==	==	==	==	==	==	==	==	==	==	==	==	==	==
*-	*-	*-	*-	*-	*-	*-	*-	*-	*-	*-	*-	*-	*-	*-	*-
!!!system-decoration: [g1][g2][g3]s9
!!!RDF**kern: > = above
!!!RDF**kern: < = below
!!!RDF**kern: | = vertical stroke
!!!ENC: Marta Lawrence
!!!END: 2020-11-10
!!!ENC: Andrzej Gręziak
!!!END: 2020-05-07
!!!YEC: Copyright 2022 Narodowy Instytut Fryderyka Chopina (https://polishscores.org)
!!!YEM: License CC-BY-4.0 (https://creativecommons.org/licenses/by/4.0)
